(G-CODE GENERATED BY FLATCAM v8.994 - www.flatcam.org - Version Date: 2020/11/7)

(Name: led_holder-Edge_Cuts.gbr_cutout_cnc)
(Type: G-code from Geometry)
(Units: MM)

(Created on Tuesday, 12 December 2023 at 12:00)

(This preprocessor is the default preprocessor used by FlatCAM.)
(It is made to work with MACH3 compatible motion controllers.)

(TOOL DIAMETER: 0.8 mm)
(Feedrate_XY: 120.0 mm/min)
(Feedrate_Z: 60.0 mm/min)
(Feedrate rapids 1500.0 mm/min)

(Z_Cut: -1.8 mm)
(DepthPerCut: 0.6 mm <=>3 passes)
(Z_Move: 2.0 mm)
(Z Start: None mm)
(Z End: 15.0 mm)
(X,Y End: None mm)
(Steps per circle: 64)
(Preprocessor Geometry: default)

(X range:   -0.3788 ...   44.4788  mm)
(Y range:   -0.3788 ...   44.4788  mm)

(Spindle Speed: 0.0 RPM)
G21
G90
G94

G01 F120.00

M5
G00 Z15.0000
G00 X0.0000 Y0.0000
T6M6    
(MSG, Change to Tool Dia = 0.8000)
M0
G00 Z15.0000

M03
G01 F120.00
G00 X19.7500 Y-0.3788
G01 F60.00
G01 Z-0.6000
G01 F120.00
G01 X17.6773 Y-0.0714
G01 X17.6483 Y-0.0662
G01 X17.6243 Y-0.0609
G01 X15.5301 Y0.4637
G01 X15.5017 Y0.4717
G01 X15.4784 Y0.4794
G01 X13.4456 Y1.2067
G01 X13.4227 Y1.2156
G01 X13.3958 Y1.2274
G01 X11.4441 Y2.1505
G01 X11.4178 Y2.1638
G01 X11.3965 Y2.1759
G01 X9.5447 Y3.2859
G01 X9.5198 Y3.3017
G01 X9.4998 Y3.3158
G01 X7.7657 Y4.6020
G01 X7.7425 Y4.6202
G01 X7.7239 Y4.6362
G01 X6.1242 Y6.0861
G01 X6.1030 Y6.1065
G01 X6.0861 Y6.1242
G01 X4.6362 Y7.7239
G01 X4.6202 Y7.7425
G01 X4.6020 Y7.7657
G01 X3.3158 Y9.4998
G01 X3.2990 Y9.5239
G01 X3.2859 Y9.5447
G01 X2.1759 Y11.3965
G01 X2.1615 Y11.4221
G01 X2.1505 Y11.4441
G01 X1.2274 Y13.3958
G01 X1.2156 Y13.4227
G01 X1.2067 Y13.4456
G01 X0.4794 Y15.4784
G01 X0.4717 Y15.5017
G01 X0.4637 Y15.5301
G01 X-0.0609 Y17.6243
G01 X-0.0662 Y17.6483
G01 X-0.0714 Y17.6773
G01 X-0.3788 Y19.7500
G00 X-0.3788 Y19.7500
G01 F60.00
G01 Z-1.2000
G01 F120.00
G01 X-0.0714 Y17.6773
G01 X-0.0662 Y17.6483
G01 X-0.0609 Y17.6243
G01 X0.4637 Y15.5301
G01 X0.4717 Y15.5017
G01 X0.4794 Y15.4784
G01 X1.2067 Y13.4456
G01 X1.2156 Y13.4227
G01 X1.2274 Y13.3958
G01 X2.1505 Y11.4441
G01 X2.1615 Y11.4221
G01 X2.1759 Y11.3965
G01 X3.2859 Y9.5447
G01 X3.2990 Y9.5239
G01 X3.3158 Y9.4998
G01 X4.6020 Y7.7657
G01 X4.6202 Y7.7425
G01 X4.6362 Y7.7239
G01 X6.0861 Y6.1242
G01 X6.1030 Y6.1065
G01 X6.1242 Y6.0861
G01 X7.7239 Y4.6362
G01 X7.7425 Y4.6202
G01 X7.7657 Y4.6020
G01 X9.4998 Y3.3158
G01 X9.5198 Y3.3017
G01 X9.5447 Y3.2859
G01 X11.3965 Y2.1759
G01 X11.4178 Y2.1638
G01 X11.4441 Y2.1505
G01 X13.3958 Y1.2274
G01 X13.4227 Y1.2156
G01 X13.4456 Y1.2067
G01 X15.4784 Y0.4794
G01 X15.5017 Y0.4717
G01 X15.5301 Y0.4637
G01 X17.6243 Y-0.0609
G01 X17.6483 Y-0.0662
G01 X17.6773 Y-0.0714
G01 X19.7500 Y-0.3788
G00 X19.7500 Y-0.3788
G01 F60.00
G01 Z-1.8000
G01 F120.00
G01 X17.6773 Y-0.0714
G01 X17.6483 Y-0.0662
G01 X17.6243 Y-0.0609
G01 X15.5301 Y0.4637
G01 X15.5017 Y0.4717
G01 X15.4784 Y0.4794
G01 X13.4456 Y1.2067
G01 X13.4227 Y1.2156
G01 X13.3958 Y1.2274
G01 X11.4441 Y2.1505
G01 X11.4178 Y2.1638
G01 X11.3965 Y2.1759
G01 X9.5447 Y3.2859
G01 X9.5198 Y3.3017
G01 X9.4998 Y3.3158
G01 X7.7657 Y4.6020
G01 X7.7425 Y4.6202
G01 X7.7239 Y4.6362
G01 X6.1242 Y6.0861
G01 X6.1030 Y6.1065
G01 X6.0861 Y6.1242
G01 X4.6362 Y7.7239
G01 X4.6202 Y7.7425
G01 X4.6020 Y7.7657
G01 X3.3158 Y9.4998
G01 X3.2990 Y9.5239
G01 X3.2859 Y9.5447
G01 X2.1759 Y11.3965
G01 X2.1615 Y11.4221
G01 X2.1505 Y11.4441
G01 X1.2274 Y13.3958
G01 X1.2156 Y13.4227
G01 X1.2067 Y13.4456
G01 X0.4794 Y15.4784
G01 X0.4717 Y15.5017
G01 X0.4637 Y15.5301
G01 X-0.0609 Y17.6243
G01 X-0.0662 Y17.6483
G01 X-0.0714 Y17.6773
G01 X-0.3788 Y19.7500
G00 Z2.0000
G00 X-0.3492 Y24.5500
G01 F60.00
G01 Z-0.6000
G01 F120.00
G01 X-0.0714 Y26.4227
G01 X-0.0662 Y26.4517
G01 X-0.0609 Y26.4756
G01 X0.4637 Y28.5699
G01 X0.4717 Y28.5982
G01 X0.4794 Y28.6215
G01 X1.2067 Y30.6543
G01 X1.2156 Y30.6772
G01 X1.2274 Y30.7042
G01 X2.1505 Y32.6559
G01 X2.1638 Y32.6821
G01 X2.1759 Y32.7035
G01 X3.2859 Y34.5553
G01 X3.3017 Y34.5801
G01 X3.3158 Y34.6002
G01 X4.6020 Y36.3343
G01 X4.6202 Y36.3574
G01 X4.6362 Y36.3760
G01 X6.0861 Y37.9757
G01 X6.1065 Y37.9969
G01 X6.1242 Y38.0139
G01 X7.7239 Y39.4637
G01 X7.7425 Y39.4798
G01 X7.7657 Y39.4980
G01 X9.4998 Y40.7841
G01 X9.5239 Y40.8009
G01 X9.5447 Y40.8141
G01 X11.3965 Y41.9240
G01 X11.4221 Y41.9384
G01 X11.4441 Y41.9494
G01 X13.3958 Y42.8725
G01 X13.4227 Y42.8844
G01 X13.4456 Y42.8932
G01 X15.4784 Y43.6205
G01 X15.5017 Y43.6282
G01 X15.5301 Y43.6362
G01 X17.6243 Y44.1608
G01 X17.6483 Y44.1662
G01 X17.6773 Y44.1713
G01 X19.7500 Y44.4788
G00 X19.7500 Y44.4788
G01 F60.00
G01 Z-1.2000
G01 F120.00
G01 X17.6773 Y44.1713
G01 X17.6483 Y44.1662
G01 X17.6243 Y44.1608
G01 X15.5301 Y43.6362
G01 X15.5017 Y43.6282
G01 X15.4784 Y43.6205
G01 X13.4456 Y42.8932
G01 X13.4227 Y42.8844
G01 X13.3958 Y42.8725
G01 X11.4441 Y41.9494
G01 X11.4221 Y41.9384
G01 X11.3965 Y41.9240
G01 X9.5447 Y40.8141
G01 X9.5239 Y40.8009
G01 X9.4998 Y40.7841
G01 X7.7657 Y39.4980
G01 X7.7425 Y39.4798
G01 X7.7239 Y39.4637
G01 X6.1242 Y38.0139
G01 X6.1065 Y37.9969
G01 X6.0861 Y37.9757
G01 X4.6362 Y36.3760
G01 X4.6202 Y36.3574
G01 X4.6020 Y36.3343
G01 X3.3158 Y34.6002
G01 X3.3017 Y34.5801
G01 X3.2859 Y34.5553
G01 X2.1759 Y32.7035
G01 X2.1638 Y32.6821
G01 X2.1505 Y32.6559
G01 X1.2274 Y30.7042
G01 X1.2156 Y30.6772
G01 X1.2067 Y30.6543
G01 X0.4794 Y28.6215
G01 X0.4717 Y28.5982
G01 X0.4637 Y28.5699
G01 X-0.0609 Y26.4756
G01 X-0.0662 Y26.4517
G01 X-0.0714 Y26.4227
G01 X-0.3492 Y24.5500
G00 X-0.3492 Y24.5500
G01 F60.00
G01 Z-1.8000
G01 F120.00
G01 X-0.0714 Y26.4227
G01 X-0.0662 Y26.4517
G01 X-0.0609 Y26.4756
G01 X0.4637 Y28.5699
G01 X0.4717 Y28.5982
G01 X0.4794 Y28.6215
G01 X1.2067 Y30.6543
G01 X1.2156 Y30.6772
G01 X1.2274 Y30.7042
G01 X2.1505 Y32.6559
G01 X2.1638 Y32.6821
G01 X2.1759 Y32.7035
G01 X3.2859 Y34.5553
G01 X3.3017 Y34.5801
G01 X3.3158 Y34.6002
G01 X4.6020 Y36.3343
G01 X4.6202 Y36.3574
G01 X4.6362 Y36.3760
G01 X6.0861 Y37.9757
G01 X6.1065 Y37.9969
G01 X6.1242 Y38.0139
G01 X7.7239 Y39.4637
G01 X7.7425 Y39.4798
G01 X7.7657 Y39.4980
G01 X9.4998 Y40.7841
G01 X9.5239 Y40.8009
G01 X9.5447 Y40.8141
G01 X11.3965 Y41.9240
G01 X11.4221 Y41.9384
G01 X11.4441 Y41.9494
G01 X13.3958 Y42.8725
G01 X13.4227 Y42.8844
G01 X13.4456 Y42.8932
G01 X15.4784 Y43.6205
G01 X15.5017 Y43.6282
G01 X15.5301 Y43.6362
G01 X17.6243 Y44.1608
G01 X17.6483 Y44.1662
G01 X17.6773 Y44.1713
G01 X19.7500 Y44.4788
G00 Z2.0000
G00 X24.5500 Y44.4491
G01 F60.00
G01 Z-0.6000
G01 F120.00
G01 X26.4227 Y44.1713
G01 X26.4517 Y44.1662
G01 X26.4756 Y44.1608
G01 X28.5699 Y43.6362
G01 X28.5982 Y43.6282
G01 X28.6215 Y43.6205
G01 X30.6543 Y42.8932
G01 X30.6772 Y42.8844
G01 X30.7042 Y42.8725
G01 X32.6559 Y41.9494
G01 X32.6821 Y41.9361
G01 X32.7035 Y41.9240
G01 X34.5553 Y40.8141
G01 X34.5801 Y40.7982
G01 X34.6002 Y40.7841
G01 X36.3343 Y39.4980
G01 X36.3574 Y39.4798
G01 X36.3760 Y39.4637
G01 X37.9757 Y38.0139
G01 X37.9969 Y37.9935
G01 X38.0139 Y37.9757
G01 X39.4637 Y36.3760
G01 X39.4798 Y36.3574
G01 X39.4980 Y36.3343
G01 X40.7841 Y34.6002
G01 X40.8009 Y34.5760
G01 X40.8141 Y34.5553
G01 X41.9240 Y32.7035
G01 X41.9384 Y32.6778
G01 X41.9494 Y32.6559
G01 X42.8725 Y30.7042
G01 X42.8844 Y30.6772
G01 X42.8932 Y30.6543
G01 X43.6205 Y28.6215
G01 X43.6282 Y28.5982
G01 X43.6362 Y28.5699
G01 X44.1608 Y26.4756
G01 X44.1662 Y26.4517
G01 X44.1713 Y26.4227
G01 X44.4491 Y24.5500
G00 X44.4491 Y24.5500
G01 F60.00
G01 Z-1.2000
G01 F120.00
G01 X44.1713 Y26.4227
G01 X44.1662 Y26.4517
G01 X44.1608 Y26.4756
G01 X43.6362 Y28.5699
G01 X43.6282 Y28.5982
G01 X43.6205 Y28.6215
G01 X42.8932 Y30.6543
G01 X42.8844 Y30.6772
G01 X42.8725 Y30.7042
G01 X41.9494 Y32.6559
G01 X41.9384 Y32.6778
G01 X41.9240 Y32.7035
G01 X40.8141 Y34.5553
G01 X40.8009 Y34.5760
G01 X40.7841 Y34.6002
G01 X39.4980 Y36.3343
G01 X39.4798 Y36.3574
G01 X39.4637 Y36.3760
G01 X38.0139 Y37.9757
G01 X37.9969 Y37.9935
G01 X37.9757 Y38.0139
G01 X36.3760 Y39.4637
G01 X36.3574 Y39.4798
G01 X36.3343 Y39.4980
G01 X34.6002 Y40.7841
G01 X34.5801 Y40.7982
G01 X34.5553 Y40.8141
G01 X32.7035 Y41.9240
G01 X32.6821 Y41.9361
G01 X32.6559 Y41.9494
G01 X30.7042 Y42.8725
G01 X30.6772 Y42.8844
G01 X30.6543 Y42.8932
G01 X28.6215 Y43.6205
G01 X28.5982 Y43.6282
G01 X28.5699 Y43.6362
G01 X26.4756 Y44.1608
G01 X26.4517 Y44.1662
G01 X26.4227 Y44.1713
G01 X24.5500 Y44.4491
G00 X24.5500 Y44.4491
G01 F60.00
G01 Z-1.8000
G01 F120.00
G01 X26.4227 Y44.1713
G01 X26.4517 Y44.1662
G01 X26.4756 Y44.1608
G01 X28.5699 Y43.6362
G01 X28.5982 Y43.6282
G01 X28.6215 Y43.6205
G01 X30.6543 Y42.8932
G01 X30.6772 Y42.8844
G01 X30.7042 Y42.8725
G01 X32.6559 Y41.9494
G01 X32.6821 Y41.9361
G01 X32.7035 Y41.9240
G01 X34.5553 Y40.8141
G01 X34.5801 Y40.7982
G01 X34.6002 Y40.7841
G01 X36.3343 Y39.4980
G01 X36.3574 Y39.4798
G01 X36.3760 Y39.4637
G01 X37.9757 Y38.0139
G01 X37.9969 Y37.9935
G01 X38.0139 Y37.9757
G01 X39.4637 Y36.3760
G01 X39.4798 Y36.3574
G01 X39.4980 Y36.3343
G01 X40.7841 Y34.6002
G01 X40.8009 Y34.5760
G01 X40.8141 Y34.5553
G01 X41.9240 Y32.7035
G01 X41.9384 Y32.6778
G01 X41.9494 Y32.6559
G01 X42.8725 Y30.7042
G01 X42.8844 Y30.6772
G01 X42.8932 Y30.6543
G01 X43.6205 Y28.6215
G01 X43.6282 Y28.5982
G01 X43.6362 Y28.5699
G01 X44.1608 Y26.4756
G01 X44.1662 Y26.4517
G01 X44.1713 Y26.4227
G01 X44.4491 Y24.5500
G00 Z2.0000
G00 X44.4788 Y19.7500
G01 F60.00
G01 Z-0.6000
G01 F120.00
G01 X44.1713 Y17.6773
G01 X44.1662 Y17.6483
G01 X44.1608 Y17.6243
G01 X43.6362 Y15.5301
G01 X43.6282 Y15.5017
G01 X43.6205 Y15.4784
G01 X42.8932 Y13.4456
G01 X42.8844 Y13.4227
G01 X42.8725 Y13.3958
G01 X41.9494 Y11.4441
G01 X41.9361 Y11.4178
G01 X41.9240 Y11.3965
G01 X40.8141 Y9.5447
G01 X40.7982 Y9.5198
G01 X40.7841 Y9.4998
G01 X39.4980 Y7.7657
G01 X39.4798 Y7.7425
G01 X39.4637 Y7.7239
G01 X38.0139 Y6.1242
G01 X37.9969 Y6.1065
G01 X37.9757 Y6.0861
G01 X36.3760 Y4.6362
G01 X36.3574 Y4.6202
G01 X36.3343 Y4.6020
G01 X34.6002 Y3.3158
G01 X34.5760 Y3.2990
G01 X34.5553 Y3.2859
G01 X32.7035 Y2.1759
G01 X32.6778 Y2.1615
G01 X32.6559 Y2.1505
G01 X30.7042 Y1.2274
G01 X30.6772 Y1.2156
G01 X30.6543 Y1.2067
G01 X28.6215 Y0.4794
G01 X28.5982 Y0.4717
G01 X28.5699 Y0.4637
G01 X26.4756 Y-0.0609
G01 X26.4517 Y-0.0662
G01 X26.4227 Y-0.0714
G01 X24.5500 Y-0.3492
G00 X24.5500 Y-0.3492
G01 F60.00
G01 Z-1.2000
G01 F120.00
G01 X26.4227 Y-0.0714
G01 X26.4517 Y-0.0662
G01 X26.4756 Y-0.0609
G01 X28.5699 Y0.4637
G01 X28.5982 Y0.4717
G01 X28.6215 Y0.4794
G01 X30.6543 Y1.2067
G01 X30.6772 Y1.2156
G01 X30.7042 Y1.2274
G01 X32.6559 Y2.1505
G01 X32.6778 Y2.1615
G01 X32.7035 Y2.1759
G01 X34.5553 Y3.2859
G01 X34.5760 Y3.2990
G01 X34.6002 Y3.3158
G01 X36.3343 Y4.6020
G01 X36.3574 Y4.6202
G01 X36.3760 Y4.6362
G01 X37.9757 Y6.0861
G01 X37.9969 Y6.1065
G01 X38.0139 Y6.1242
G01 X39.4637 Y7.7239
G01 X39.4798 Y7.7425
G01 X39.4980 Y7.7657
G01 X40.7841 Y9.4998
G01 X40.7982 Y9.5198
G01 X40.8141 Y9.5447
G01 X41.9240 Y11.3965
G01 X41.9361 Y11.4178
G01 X41.9494 Y11.4441
G01 X42.8725 Y13.3958
G01 X42.8844 Y13.4227
G01 X42.8932 Y13.4456
G01 X43.6205 Y15.4784
G01 X43.6282 Y15.5017
G01 X43.6362 Y15.5301
G01 X44.1608 Y17.6243
G01 X44.1662 Y17.6483
G01 X44.1713 Y17.6773
G01 X44.4788 Y19.7500
G00 X44.4788 Y19.7500
G01 F60.00
G01 Z-1.8000
G01 F120.00
G01 X44.1713 Y17.6773
G01 X44.1662 Y17.6483
G01 X44.1608 Y17.6243
G01 X43.6362 Y15.5301
G01 X43.6282 Y15.5017
G01 X43.6205 Y15.4784
G01 X42.8932 Y13.4456
G01 X42.8844 Y13.4227
G01 X42.8725 Y13.3958
G01 X41.9494 Y11.4441
G01 X41.9361 Y11.4178
G01 X41.9240 Y11.3965
G01 X40.8141 Y9.5447
G01 X40.7982 Y9.5198
G01 X40.7841 Y9.4998
G01 X39.4980 Y7.7657
G01 X39.4798 Y7.7425
G01 X39.4637 Y7.7239
G01 X38.0139 Y6.1242
G01 X37.9969 Y6.1065
G01 X37.9757 Y6.0861
G01 X36.3760 Y4.6362
G01 X36.3574 Y4.6202
G01 X36.3343 Y4.6020
G01 X34.6002 Y3.3158
G01 X34.5760 Y3.2990
G01 X34.5553 Y3.2859
G01 X32.7035 Y2.1759
G01 X32.6778 Y2.1615
G01 X32.6559 Y2.1505
G01 X30.7042 Y1.2274
G01 X30.6772 Y1.2156
G01 X30.6543 Y1.2067
G01 X28.6215 Y0.4794
G01 X28.5982 Y0.4717
G01 X28.5699 Y0.4637
G01 X26.4756 Y-0.0609
G01 X26.4517 Y-0.0662
G01 X26.4227 Y-0.0714
G01 X24.5500 Y-0.3492
G00 Z2.0000
M05
G00 Z2.0000
G00 Z15.00


