(G-CODE GENERATED BY FLATCAM v8.994 - www.flatcam.org - Version Date: 2020/11/7)

(Name: led_holder-F_Cu.gbr_iso_combined_cnc)
(Type: G-code from Geometry)
(Units: MM)

(Created on Tuesday, 12 December 2023 at 11:59)

(This preprocessor is the default preprocessor used by FlatCAM.)
(It is made to work with MACH3 compatible motion controllers.)

(TOOL DIAMETER: 0.2536 mm)
(Feedrate_XY: 120.0 mm/min)
(Feedrate_Z: 60.0 mm/min)
(Feedrate rapids 1500.0 mm/min)

(Z_Cut: -0.1 mm)
(Z_Move: 2.0 mm)
(Z Start: None mm)
(Z End: 15.0 mm)
(X,Y End: None mm)
(Steps per circle: 64)
(Preprocessor Geometry: default)

(X range:   16.1732 ...   43.7242  mm)
(Y range:   14.9732 ...   30.0689  mm)

(Spindle Speed: 0.0 RPM)
G21
G90
G94

G01 F120.00

M5
G00 Z15.0000
G00 X0.0000 Y0.0000
T2M6    
(MSG, Change to Tool Dia = 0.2536)
M0
G00 Z15.0000

M03
G01 F120.00
G00 X16.3000 Y16.2732
G01 F60.00
G01 Z-0.1000
G01 F120.00
G01 X20.1500 Y16.2730
G01 X20.1807 Y16.2744
G01 X20.1931 Y16.2756
G01 X20.2235 Y16.2803
G01 X20.2594 Y16.2893
G01 X20.2884 Y16.2995
G01 X20.2999 Y16.3043
G01 X20.3276 Y16.3175
G01 X20.3541 Y16.3332
G01 X20.3645 Y16.3401
G01 X20.3891 Y16.3586
G01 X20.4165 Y16.3834
G01 X23.1061 Y19.0730
G01 X27.6000 Y19.0732
G01 X27.6093 Y19.0735
G01 X27.6186 Y19.0745
G01 X27.6277 Y19.0762
G01 X27.6368 Y19.0786
G01 X27.6485 Y19.0828
G01 X27.6570 Y19.0867
G01 X27.6678 Y19.0928
G01 X27.6755 Y19.0981
G01 X27.6828 Y19.1040
G01 X27.6896 Y19.1103
G01 X27.6960 Y19.1171
G01 X27.7018 Y19.1244
G01 X27.7087 Y19.1348
G01 X27.7132 Y19.1430
G01 X27.7171 Y19.1514
G01 X27.7204 Y19.1602
G01 X27.7230 Y19.1692
G01 X27.7254 Y19.1814
G01 X27.7264 Y19.1906
G01 X27.7268 Y19.2000
G01 X27.7268 Y19.7000
G01 X27.7264 Y19.7093
G01 X27.7254 Y19.7186
G01 X27.7237 Y19.7277
G01 X27.7213 Y19.7368
G01 X27.7183 Y19.7456
G01 X27.7132 Y19.7570
G01 X27.7087 Y19.7652
G01 X27.7036 Y19.7730
G01 X27.6980 Y19.7804
G01 X27.6918 Y19.7874
G01 X27.6828 Y19.7960
G01 X27.6755 Y19.8018
G01 X27.6678 Y19.8071
G01 X27.6597 Y19.8118
G01 X27.6513 Y19.8159
G01 X27.6427 Y19.8194
G01 X27.6338 Y19.8222
G01 X27.6216 Y19.8249
G01 X27.6124 Y19.8262
G01 X27.6031 Y19.8267
G01 X22.9500 Y19.8269
G01 X22.9192 Y19.8255
G01 X22.9068 Y19.8243
G01 X22.8764 Y19.8196
G01 X22.8405 Y19.8107
G01 X22.8115 Y19.8004
G01 X22.8000 Y19.7957
G01 X22.7723 Y19.7824
G01 X22.7458 Y19.7667
G01 X22.7355 Y19.7598
G01 X22.7108 Y19.7413
G01 X22.6834 Y19.7165
G01 X19.9938 Y17.0269
G01 X16.3000 Y17.0268
G01 X16.2875 Y17.0262
G01 X16.2752 Y17.0243
G01 X16.2632 Y17.0213
G01 X16.2543 Y17.0183
G01 X16.2458 Y17.0146
G01 X16.2375 Y17.0103
G01 X16.2295 Y17.0054
G01 X16.2220 Y16.9999
G01 X16.2148 Y16.9939
G01 X16.2081 Y16.9874
G01 X16.2019 Y16.9804
G01 X16.1963 Y16.9730
G01 X16.1912 Y16.9652
G01 X16.1867 Y16.9570
G01 X16.1828 Y16.9485
G01 X16.1796 Y16.9397
G01 X16.1770 Y16.9308
G01 X16.1750 Y16.9216
G01 X16.1738 Y16.9124
G01 X16.1732 Y16.9000
G01 X16.1732 Y16.3969
G01 X16.1741 Y16.3844
G01 X16.1762 Y16.3722
G01 X16.1796 Y16.3602
G01 X16.1840 Y16.3486
G01 X16.1896 Y16.3375
G01 X16.1963 Y16.3270
G01 X16.2040 Y16.3171
G01 X16.2125 Y16.3081
G01 X16.2220 Y16.3000
G01 X16.2295 Y16.2945
G01 X16.2402 Y16.2881
G01 X16.2514 Y16.2828
G01 X16.2632 Y16.2786
G01 X16.2752 Y16.2756
G01 X16.2875 Y16.2738
G01 X16.3000 Y16.2732
G00 Z2.0000
G00 X16.3000 Y17.2732
G01 F60.00
G01 Z-0.1000
G01 F120.00
G01 X19.6000 Y17.2732
G01 X19.6124 Y17.2738
G01 X19.6277 Y17.2762
G01 X19.6397 Y17.2796
G01 X19.6513 Y17.2840
G01 X19.6597 Y17.2881
G01 X19.6678 Y17.2928
G01 X19.6804 Y17.3019
G01 X19.6874 Y17.3081
G01 X19.6939 Y17.3148
G01 X19.6999 Y17.3220
G01 X19.7054 Y17.3295
G01 X19.7103 Y17.3375
G01 X19.7146 Y17.3458
G01 X19.7204 Y17.3602
G01 X19.7243 Y17.3752
G01 X19.7258 Y17.3844
G01 X19.7266 Y17.3937
G01 X19.7268 Y18.7000
G01 X19.7262 Y18.7124
G01 X19.7243 Y18.7247
G01 X19.7213 Y18.7368
G01 X19.7159 Y18.7513
G01 X19.7118 Y18.7597
G01 X19.7071 Y18.7678
G01 X19.6980 Y18.7804
G01 X19.6918 Y18.7874
G01 X19.6851 Y18.7939
G01 X19.6780 Y18.7999
G01 X19.6704 Y18.8054
G01 X19.6570 Y18.8132
G01 X19.6485 Y18.8171
G01 X19.6397 Y18.8204
G01 X19.6308 Y18.8230
G01 X19.6216 Y18.8249
G01 X19.6124 Y18.8262
G01 X19.6031 Y18.8267
G01 X16.3000 Y18.8268
G01 X16.2875 Y18.8262
G01 X16.2752 Y18.8243
G01 X16.2632 Y18.8213
G01 X16.2486 Y18.8159
G01 X16.2348 Y18.8087
G01 X16.2270 Y18.8036
G01 X16.2195 Y18.7980
G01 X16.2125 Y18.7918
G01 X16.2060 Y18.7851
G01 X16.2000 Y18.7780
G01 X16.1945 Y18.7704
G01 X16.1867 Y18.7570
G01 X16.1828 Y18.7485
G01 X16.1796 Y18.7397
G01 X16.1770 Y18.7308
G01 X16.1750 Y18.7216
G01 X16.1733 Y18.7062
G01 X16.1732 Y17.3969
G01 X16.1741 Y17.3844
G01 X16.1762 Y17.3722
G01 X16.1796 Y17.3602
G01 X16.1840 Y17.3486
G01 X16.1896 Y17.3375
G01 X16.1963 Y17.3270
G01 X16.2040 Y17.3171
G01 X16.2125 Y17.3081
G01 X16.2220 Y17.3000
G01 X16.2321 Y17.2928
G01 X16.2430 Y17.2867
G01 X16.2543 Y17.2817
G01 X16.2661 Y17.2778
G01 X16.2783 Y17.2750
G01 X16.2906 Y17.2735
G01 X16.3000 Y17.2732
G00 Z2.0000
G00 X16.3000 Y19.0732
G01 F60.00
G01 Z-0.1000
G01 F120.00
G01 X19.9500 Y19.0730
G01 X19.9869 Y19.0749
G01 X20.0174 Y19.0792
G01 X20.0296 Y19.0816
G01 X20.0564 Y19.0884
G01 X20.0653 Y19.0912
G01 X20.0942 Y19.1017
G01 X20.1221 Y19.1147
G01 X20.1304 Y19.1190
G01 X20.1541 Y19.1332
G01 X20.1619 Y19.1383
G01 X20.1867 Y19.1567
G01 X20.1938 Y19.1627
G01 X20.2143 Y19.1813
G01 X22.1061 Y21.0730
G01 X28.0666 Y21.0730
G01 X28.0580 Y21.0627
G01 X28.0440 Y21.0432
G01 X28.0317 Y21.0225
G01 X28.0213 Y21.0008
G01 X28.0179 Y20.9921
G01 X28.0101 Y20.9694
G01 X28.0043 Y20.9460
G01 X28.0011 Y20.9253
G01 X28.0001 Y20.9160
G01 X27.9990 Y20.8920
G01 X27.9990 Y20.5974
G01 X27.7045 Y20.5974
G01 X27.6804 Y20.5964
G01 X27.6712 Y20.5953
G01 X27.6505 Y20.5921
G01 X27.6241 Y20.5855
G01 X27.5985 Y20.5764
G01 X27.5740 Y20.5647
G01 X27.5533 Y20.5525
G01 X27.5456 Y20.5472
G01 X27.5288 Y20.5346
G01 X27.5087 Y20.5163
G01 X27.4925 Y20.4986
G01 X27.4866 Y20.4913
G01 X27.4743 Y20.4744
G01 X27.4603 Y20.4511
G01 X27.4499 Y20.4294
G01 X27.4464 Y20.4207
G01 X27.4395 Y20.4009
G01 X27.4329 Y20.3746
G01 X27.4289 Y20.3477
G01 X27.4278 Y20.3268
G01 X27.4278 Y20.3143
G01 X27.4293 Y20.2903
G01 X27.4324 Y20.2696
G01 X27.4343 Y20.2605
G01 X27.4395 Y20.2402
G01 X27.4475 Y20.2175
G01 X27.4512 Y20.2089
G01 X27.4603 Y20.1900
G01 X27.4726 Y20.1693
G01 X27.4778 Y20.1617
G01 X27.4904 Y20.1449
G01 X27.5044 Y20.1293
G01 X27.5109 Y20.1226
G01 X27.5288 Y20.1065
G01 X27.5481 Y20.0921
G01 X27.5559 Y20.0870
G01 X27.5740 Y20.0764
G01 X27.5957 Y20.0660
G01 X27.6211 Y20.0566
G01 X27.6444 Y20.0504
G01 X27.6566 Y20.0479
G01 X27.6742 Y20.0454
G01 X27.6835 Y20.0446
G01 X27.7045 Y20.0437
G01 X27.9990 Y20.0437
G01 X27.9990 Y19.7491
G01 X28.0001 Y19.7251
G01 X28.0011 Y19.7158
G01 X28.0043 Y19.6951
G01 X28.0101 Y19.6718
G01 X28.0189 Y19.6461
G01 X28.0289 Y19.6242
G01 X28.0348 Y19.6132
G01 X28.0475 Y19.5927
G01 X28.0619 Y19.5735
G01 X28.0758 Y19.5579
G01 X28.0824 Y19.5512
G01 X28.1003 Y19.5351
G01 X28.1195 Y19.5207
G01 X28.1273 Y19.5156
G01 X28.1454 Y19.5050
G01 X28.1643 Y19.4959
G01 X28.1728 Y19.4922
G01 X28.1955 Y19.4842
G01 X28.2188 Y19.4782
G01 X28.2280 Y19.4765
G01 X28.2488 Y19.4736
G01 X28.2759 Y19.4723
G01 X28.3030 Y19.4736
G01 X28.3238 Y19.4765
G01 X28.3330 Y19.4782
G01 X28.3563 Y19.4842
G01 X28.3790 Y19.4922
G01 X28.3875 Y19.4959
G01 X28.4064 Y19.5050
G01 X28.4245 Y19.5156
G01 X28.4323 Y19.5207
G01 X28.4516 Y19.5351
G01 X28.4695 Y19.5512
G01 X28.4760 Y19.5579
G01 X28.4899 Y19.5735
G01 X28.5044 Y19.5927
G01 X28.5170 Y19.6132
G01 X28.5229 Y19.6242
G01 X28.5329 Y19.6461
G01 X28.5417 Y19.6718
G01 X28.5475 Y19.6951
G01 X28.5507 Y19.7158
G01 X28.5517 Y19.7251
G01 X28.5528 Y19.7491
G01 X28.5528 Y20.0437
G01 X28.8473 Y20.0437
G01 X28.8683 Y20.0446
G01 X28.8776 Y20.0454
G01 X28.8952 Y20.0479
G01 X28.9074 Y20.0504
G01 X28.9307 Y20.0566
G01 X28.9561 Y20.0660
G01 X28.9779 Y20.0764
G01 X28.9959 Y20.0870
G01 X29.0037 Y20.0921
G01 X29.0206 Y20.1046
G01 X29.0277 Y20.1106
G01 X29.0431 Y20.1248
G01 X29.0594 Y20.1425
G01 X29.0652 Y20.1498
G01 X29.0775 Y20.1667
G01 X29.0884 Y20.1846
G01 X29.0929 Y20.1928
G01 X29.1031 Y20.2146
G01 X29.1113 Y20.2372
G01 X29.1139 Y20.2462
G01 X29.1189 Y20.2665
G01 X29.1225 Y20.2903
G01 X29.1241 Y20.3143
G01 X29.1241 Y20.3268
G01 X29.1229 Y20.3477
G01 X29.1189 Y20.3746
G01 X29.1123 Y20.4009
G01 X29.1054 Y20.4207
G01 X29.1019 Y20.4294
G01 X29.0915 Y20.4511
G01 X29.0792 Y20.4718
G01 X29.0740 Y20.4795
G01 X29.0614 Y20.4962
G01 X29.0431 Y20.5163
G01 X29.0230 Y20.5346
G01 X29.0062 Y20.5472
G01 X28.9985 Y20.5525
G01 X28.9779 Y20.5647
G01 X28.9533 Y20.5764
G01 X28.9277 Y20.5855
G01 X28.9013 Y20.5921
G01 X28.8806 Y20.5953
G01 X28.8714 Y20.5964
G01 X28.8473 Y20.5974
G01 X28.5528 Y20.5974
G01 X28.5528 Y20.8920
G01 X28.5517 Y20.9160
G01 X28.5507 Y20.9253
G01 X28.5475 Y20.9460
G01 X28.5417 Y20.9694
G01 X28.5339 Y20.9921
G01 X28.5305 Y21.0008
G01 X28.5201 Y21.0225
G01 X28.5078 Y21.0432
G01 X28.4938 Y21.0627
G01 X28.4852 Y21.0730
G01 X35.7938 Y21.0730
G01 X37.8232 Y19.0437
G01 X37.8232 Y17.8500
G01 X37.8250 Y17.8130
G01 X37.8304 Y17.7765
G01 X37.8394 Y17.7406
G01 X37.8518 Y17.7058
G01 X37.8677 Y17.6723
G01 X37.8867 Y17.6406
G01 X37.9087 Y17.6109
G01 X37.9335 Y17.5835
G01 X37.9562 Y17.5628
G01 X37.9658 Y17.5549
G01 X37.9906 Y17.5367
G01 X38.0223 Y17.5177
G01 X38.0558 Y17.5018
G01 X38.0847 Y17.4913
G01 X38.0966 Y17.4877
G01 X38.1295 Y17.4798
G01 X38.1630 Y17.4750
G01 X38.1937 Y17.4733
G01 X39.7000 Y17.4732
G01 X39.7307 Y17.4745
G01 X39.7400 Y17.4753
G01 X39.7735 Y17.4804
G01 X39.8093 Y17.4894
G01 X39.8442 Y17.5018
G01 X39.8720 Y17.5149
G01 X39.8803 Y17.5192
G01 X39.9040 Y17.5333
G01 X39.9144 Y17.5403
G01 X39.9390 Y17.5587
G01 X39.9619 Y17.5792
G01 X39.9686 Y17.5858
G01 X39.9912 Y17.6109
G01 X40.0133 Y17.6406
G01 X40.0323 Y17.6723
G01 X40.0469 Y17.7029
G01 X40.0503 Y17.7116
G01 X40.0605 Y17.7406
G01 X40.0682 Y17.7704
G01 X40.0706 Y17.7826
G01 X40.0746 Y17.8099
G01 X40.0754 Y17.8192
G01 X40.0768 Y17.8500
G01 X40.0768 Y19.0500
G01 X40.0752 Y19.0838
G01 X40.0742 Y19.0931
G01 X40.0695 Y19.1235
G01 X40.0622 Y19.1533
G01 X40.0596 Y19.1623
G01 X40.0503 Y19.1884
G01 X40.0456 Y19.1998
G01 X40.0323 Y19.2276
G01 X40.0133 Y19.2593
G01 X39.9912 Y19.2890
G01 X39.9664 Y19.3164
G01 X39.9390 Y19.3412
G01 X39.9093 Y19.3633
G01 X39.8776 Y19.3823
G01 X39.8498 Y19.3956
G01 X39.8413 Y19.3992
G01 X39.8153 Y19.4086
G01 X39.8033 Y19.4122
G01 X39.7735 Y19.4195
G01 X39.7431 Y19.4242
G01 X39.7338 Y19.4252
G01 X39.7000 Y19.4268
G01 X38.5062 Y19.4268
G01 X36.2143 Y21.7187
G01 X36.1891 Y21.7413
G01 X36.1594 Y21.7634
G01 X36.1276 Y21.7824
G01 X36.0971 Y21.7970
G01 X36.0884 Y21.8004
G01 X36.0594 Y21.8107
G01 X36.0296 Y21.8183
G01 X36.0174 Y21.8207
G01 X35.9900 Y21.8247
G01 X35.9807 Y21.8255
G01 X35.9500 Y21.8269
G01 X21.9500 Y21.8269
G01 X21.9192 Y21.8255
G01 X21.9068 Y21.8243
G01 X21.8764 Y21.8196
G01 X21.8405 Y21.8107
G01 X21.8057 Y21.7982
G01 X21.7778 Y21.7852
G01 X21.7669 Y21.7793
G01 X21.7380 Y21.7616
G01 X21.7108 Y21.7413
G01 X21.6857 Y21.7187
G01 X19.7938 Y19.8269
G01 X16.3000 Y19.8268
G01 X16.2875 Y19.8262
G01 X16.2722 Y19.8237
G01 X16.2632 Y19.8213
G01 X16.2543 Y19.8183
G01 X16.2458 Y19.8146
G01 X16.2375 Y19.8103
G01 X16.2270 Y19.8036
G01 X16.2195 Y19.7980
G01 X16.2125 Y19.7918
G01 X16.2060 Y19.7851
G01 X16.2000 Y19.7780
G01 X16.1945 Y19.7704
G01 X16.1896 Y19.7625
G01 X16.1853 Y19.7542
G01 X16.1817 Y19.7456
G01 X16.1786 Y19.7368
G01 X16.1762 Y19.7277
G01 X16.1745 Y19.7186
G01 X16.1735 Y19.7093
G01 X16.1732 Y19.7000
G01 X16.1733 Y19.1937
G01 X16.1741 Y19.1844
G01 X16.1762 Y19.1722
G01 X16.1796 Y19.1602
G01 X16.1840 Y19.1486
G01 X16.1896 Y19.1375
G01 X16.1963 Y19.1270
G01 X16.2040 Y19.1171
G01 X16.2125 Y19.1081
G01 X16.2220 Y19.1000
G01 X16.2295 Y19.0945
G01 X16.2402 Y19.0881
G01 X16.2514 Y19.0828
G01 X16.2632 Y19.0786
G01 X16.2752 Y19.0756
G01 X16.2875 Y19.0738
G01 X16.3000 Y19.0732
G00 Z2.0000
G00 X17.3043 Y20.5625
G01 F60.00
G01 Z-0.1000
G01 F120.00
G01 X17.3241 Y20.5556
G01 X17.3505 Y20.5490
G01 X17.3773 Y20.5450
G01 X17.3983 Y20.5438
G01 X17.6990 Y20.5437
G01 X17.6990 Y20.2491
G01 X17.7001 Y20.2251
G01 X17.7011 Y20.2158
G01 X17.7043 Y20.1951
G01 X17.7110 Y20.1688
G01 X17.7179 Y20.1490
G01 X17.7213 Y20.1403
G01 X17.7303 Y20.1214
G01 X17.7348 Y20.1132
G01 X17.7457 Y20.0953
G01 X17.7599 Y20.0759
G01 X17.7758 Y20.0579
G01 X17.7846 Y20.0491
G01 X17.8003 Y20.0351
G01 X17.8221 Y20.0189
G01 X17.8454 Y20.0050
G01 X17.8643 Y19.9959
G01 X17.8728 Y19.9922
G01 X17.8896 Y19.9861
G01 X17.9015 Y19.9825
G01 X17.9219 Y19.9776
G01 X17.9488 Y19.9736
G01 X17.9728 Y19.9723
G01 X17.9821 Y19.9724
G01 X18.0030 Y19.9736
G01 X18.0299 Y19.9776
G01 X18.0533 Y19.9833
G01 X18.0622 Y19.9861
G01 X18.0819 Y19.9933
G01 X18.1009 Y20.0022
G01 X18.1091 Y20.0065
G01 X18.1271 Y20.0172
G01 X18.1348 Y20.0225
G01 X18.1516 Y20.0351
G01 X18.1695 Y20.0512
G01 X18.1760 Y20.0579
G01 X18.1899 Y20.0735
G01 X18.2025 Y20.0902
G01 X18.2078 Y20.0979
G01 X18.2201 Y20.1186
G01 X18.2292 Y20.1375
G01 X18.2329 Y20.1461
G01 X18.2409 Y20.1688
G01 X18.2468 Y20.1921
G01 X18.2507 Y20.2158
G01 X18.2519 Y20.2282
G01 X18.2528 Y20.2491
G01 X18.2528 Y20.5437
G01 X18.5473 Y20.5437
G01 X18.5714 Y20.5448
G01 X18.5806 Y20.5458
G01 X18.6013 Y20.5490
G01 X18.6277 Y20.5556
G01 X18.6475 Y20.5625
G01 X18.6561 Y20.5660
G01 X18.6751 Y20.5749
G01 X18.6833 Y20.5795
G01 X18.7012 Y20.5904
G01 X18.7230 Y20.6065
G01 X18.7431 Y20.6248
G01 X18.7573 Y20.6402
G01 X18.7652 Y20.6498
G01 X18.7792 Y20.6693
G01 X18.7915 Y20.6900
G01 X18.8006 Y20.7089
G01 X18.8054 Y20.7204
G01 X18.8113 Y20.7372
G01 X18.8139 Y20.7462
G01 X18.8189 Y20.7665
G01 X18.8229 Y20.7934
G01 X18.8242 Y20.8206
G01 X18.8233 Y20.8415
G01 X18.8225 Y20.8508
G01 X18.8189 Y20.8746
G01 X18.8139 Y20.8949
G01 X18.8113 Y20.9039
G01 X18.8043 Y20.9236
G01 X18.8006 Y20.9322
G01 X18.7915 Y20.9511
G01 X18.7809 Y20.9691
G01 X18.7758 Y20.9770
G01 X18.7614 Y20.9962
G01 X18.7453 Y21.0141
G01 X18.7386 Y21.0206
G01 X18.7230 Y21.0346
G01 X18.7062 Y21.0472
G01 X18.6985 Y21.0525
G01 X18.6779 Y21.0647
G01 X18.6590 Y21.0738
G01 X18.6504 Y21.0775
G01 X18.6277 Y21.0855
G01 X18.6044 Y21.0915
G01 X18.5806 Y21.0953
G01 X18.5683 Y21.0966
G01 X18.5473 Y21.0974
G01 X18.2528 Y21.0974
G01 X18.2528 Y21.3920
G01 X18.2517 Y21.4160
G01 X18.2507 Y21.4253
G01 X18.2475 Y21.4460
G01 X18.2409 Y21.4724
G01 X18.2339 Y21.4921
G01 X18.2305 Y21.5008
G01 X18.2215 Y21.5197
G01 X18.2170 Y21.5279
G01 X18.2061 Y21.5458
G01 X18.1919 Y21.5652
G01 X18.1760 Y21.5833
G01 X18.1672 Y21.5921
G01 X18.1516 Y21.6060
G01 X18.1297 Y21.6222
G01 X18.1064 Y21.6362
G01 X18.0875 Y21.6453
G01 X18.0790 Y21.6489
G01 X18.0622 Y21.6550
G01 X18.0503 Y21.6586
G01 X18.0299 Y21.6635
G01 X18.0030 Y21.6675
G01 X17.9790 Y21.6688
G01 X17.9697 Y21.6687
G01 X17.9488 Y21.6675
G01 X17.9219 Y21.6635
G01 X17.8985 Y21.6578
G01 X17.8896 Y21.6550
G01 X17.8699 Y21.6478
G01 X17.8509 Y21.6390
G01 X17.8427 Y21.6347
G01 X17.8247 Y21.6239
G01 X17.8170 Y21.6186
G01 X17.8003 Y21.6060
G01 X17.7824 Y21.5899
G01 X17.7758 Y21.5833
G01 X17.7619 Y21.5676
G01 X17.7493 Y21.5509
G01 X17.7440 Y21.5432
G01 X17.7317 Y21.5225
G01 X17.7226 Y21.5036
G01 X17.7189 Y21.4951
G01 X17.7110 Y21.4724
G01 X17.7050 Y21.4491
G01 X17.7011 Y21.4253
G01 X17.6999 Y21.4129
G01 X17.6990 Y21.3920
G01 X17.6990 Y21.0974
G01 X17.4014 Y21.0974
G01 X17.3804 Y21.0964
G01 X17.3712 Y21.0953
G01 X17.3505 Y21.0921
G01 X17.3271 Y21.0864
G01 X17.3182 Y21.0836
G01 X17.2985 Y21.0764
G01 X17.2740 Y21.0647
G01 X17.2507 Y21.0508
G01 X17.2288 Y21.0346
G01 X17.2087 Y21.0163
G01 X17.1904 Y20.9962
G01 X17.1743 Y20.9744
G01 X17.1618 Y20.9538
G01 X17.1575 Y20.9455
G01 X17.1487 Y20.9265
G01 X17.1395 Y20.9009
G01 X17.1329 Y20.8746
G01 X17.1297 Y20.8539
G01 X17.1287 Y20.8446
G01 X17.1276 Y20.8175
G01 X17.1287 Y20.7965
G01 X17.1297 Y20.7872
G01 X17.1324 Y20.7696
G01 X17.1343 Y20.7605
G01 X17.1395 Y20.7402
G01 X17.1464 Y20.7204
G01 X17.1499 Y20.7117
G01 X17.1589 Y20.6928
G01 X17.1634 Y20.6846
G01 X17.1743 Y20.6667
G01 X17.1904 Y20.6449
G01 X17.2087 Y20.6248
G01 X17.2288 Y20.6065
G01 X17.2507 Y20.5904
G01 X17.2685 Y20.5795
G01 X17.2767 Y20.5749
G01 X17.2957 Y20.5660
G01 X17.3043 Y20.5625
G00 Z2.0000
G00 X17.3043 Y23.7625
G01 F60.00
G01 Z-0.1000
G01 F120.00
G01 X17.3241 Y23.7556
G01 X17.3505 Y23.7490
G01 X17.3773 Y23.7450
G01 X17.4045 Y23.7437
G01 X18.5473 Y23.7437
G01 X18.5745 Y23.7450
G01 X18.6013 Y23.7490
G01 X18.6277 Y23.7556
G01 X18.6533 Y23.7648
G01 X18.6779 Y23.7764
G01 X18.7012 Y23.7904
G01 X18.7230 Y23.8065
G01 X18.7431 Y23.8248
G01 X18.7614 Y23.8449
G01 X18.7775 Y23.8667
G01 X18.7915 Y23.8900
G01 X18.8031 Y23.9146
G01 X18.8123 Y23.9402
G01 X18.8189 Y23.9665
G01 X18.8229 Y23.9934
G01 X18.8242 Y24.0206
G01 X18.8229 Y24.0477
G01 X18.8189 Y24.0746
G01 X18.8123 Y24.1009
G01 X18.8054 Y24.1207
G01 X18.8019 Y24.1294
G01 X18.7915 Y24.1511
G01 X18.7775 Y24.1744
G01 X18.7652 Y24.1913
G01 X18.7594 Y24.1986
G01 X18.7474 Y24.2118
G01 X18.7386 Y24.2206
G01 X18.7230 Y24.2346
G01 X18.7037 Y24.2490
G01 X18.6833 Y24.2617
G01 X18.6723 Y24.2675
G01 X18.6533 Y24.2764
G01 X18.6277 Y24.2855
G01 X18.6013 Y24.2921
G01 X18.5806 Y24.2953
G01 X18.5714 Y24.2964
G01 X18.5473 Y24.2974
G01 X17.4045 Y24.2974
G01 X17.3773 Y24.2961
G01 X17.3505 Y24.2921
G01 X17.3271 Y24.2864
G01 X17.3182 Y24.2836
G01 X17.2985 Y24.2764
G01 X17.2740 Y24.2647
G01 X17.2507 Y24.2508
G01 X17.2337 Y24.2384
G01 X17.2264 Y24.2326
G01 X17.2132 Y24.2206
G01 X17.2044 Y24.2118
G01 X17.1904 Y24.1962
G01 X17.1743 Y24.1744
G01 X17.1603 Y24.1511
G01 X17.1512 Y24.1322
G01 X17.1464 Y24.1207
G01 X17.1405 Y24.1039
G01 X17.1379 Y24.0949
G01 X17.1329 Y24.0746
G01 X17.1289 Y24.0477
G01 X17.1276 Y24.0206
G01 X17.1285 Y23.9996
G01 X17.1293 Y23.9903
G01 X17.1319 Y23.9727
G01 X17.1343 Y23.9605
G01 X17.1395 Y23.9402
G01 X17.1487 Y23.9146
G01 X17.1603 Y23.8900
G01 X17.1709 Y23.8720
G01 X17.1778 Y23.8617
G01 X17.1885 Y23.8473
G01 X17.1945 Y23.8402
G01 X17.2087 Y23.8248
G01 X17.2288 Y23.8065
G01 X17.2507 Y23.7904
G01 X17.2685 Y23.7795
G01 X17.2767 Y23.7749
G01 X17.2928 Y23.7673
G01 X17.3043 Y23.7625
G00 Z2.0000
G00 X16.3000 Y24.6732
G01 F60.00
G01 Z-0.1000
G01 F120.00
G01 X20.5500 Y24.6730
G01 X20.5807 Y24.6744
G01 X20.5931 Y24.6756
G01 X20.6235 Y24.6803
G01 X20.6594 Y24.6893
G01 X20.6884 Y24.6995
G01 X20.6999 Y24.7043
G01 X20.7276 Y24.7175
G01 X20.7541 Y24.7332
G01 X20.7645 Y24.7401
G01 X20.7891 Y24.7586
G01 X20.8165 Y24.7834
G01 X23.5061 Y27.4730
G01 X27.6000 Y27.4732
G01 X27.6093 Y27.4735
G01 X27.6186 Y27.4745
G01 X27.6277 Y27.4762
G01 X27.6397 Y27.4796
G01 X27.6485 Y27.4828
G01 X27.6570 Y27.4867
G01 X27.6652 Y27.4912
G01 X27.6755 Y27.4981
G01 X27.6828 Y27.5040
G01 X27.6896 Y27.5103
G01 X27.6960 Y27.5171
G01 X27.7018 Y27.5244
G01 X27.7071 Y27.5321
G01 X27.7132 Y27.5430
G01 X27.7171 Y27.5514
G01 X27.7204 Y27.5602
G01 X27.7230 Y27.5692
G01 X27.7254 Y27.5814
G01 X27.7264 Y27.5906
G01 X27.7268 Y27.6000
G01 X27.7268 Y28.1000
G01 X27.7264 Y28.1093
G01 X27.7254 Y28.1186
G01 X27.7237 Y28.1277
G01 X27.7213 Y28.1368
G01 X27.7183 Y28.1456
G01 X27.7146 Y28.1542
G01 X27.7103 Y28.1625
G01 X27.7054 Y28.1704
G01 X27.6999 Y28.1780
G01 X27.6939 Y28.1851
G01 X27.6874 Y28.1918
G01 X27.6780 Y28.1999
G01 X27.6678 Y28.2071
G01 X27.6597 Y28.2118
G01 X27.6513 Y28.2159
G01 X27.6427 Y28.2194
G01 X27.6338 Y28.2222
G01 X27.6247 Y28.2243
G01 X27.6124 Y28.2262
G01 X27.6031 Y28.2267
G01 X23.3500 Y28.2269
G01 X23.3192 Y28.2255
G01 X23.3068 Y28.2243
G01 X23.2764 Y28.2196
G01 X23.2405 Y28.2107
G01 X23.2115 Y28.2004
G01 X23.2000 Y28.1957
G01 X23.1723 Y28.1824
G01 X23.1458 Y28.1667
G01 X23.1355 Y28.1598
G01 X23.1108 Y28.1413
G01 X23.0834 Y28.1165
G01 X20.3938 Y25.4269
G01 X16.3000 Y25.4268
G01 X16.2875 Y25.4262
G01 X16.2783 Y25.4249
G01 X16.2692 Y25.4230
G01 X16.2602 Y25.4204
G01 X16.2514 Y25.4171
G01 X16.2430 Y25.4132
G01 X16.2321 Y25.4071
G01 X16.2244 Y25.4018
G01 X16.2171 Y25.3960
G01 X16.2103 Y25.3896
G01 X16.2040 Y25.3828
G01 X16.1981 Y25.3755
G01 X16.1928 Y25.3678
G01 X16.1881 Y25.3597
G01 X16.1840 Y25.3513
G01 X16.1806 Y25.3427
G01 X16.1778 Y25.3338
G01 X16.1750 Y25.3216
G01 X16.1738 Y25.3124
G01 X16.1732 Y25.3000
G01 X16.1732 Y24.7969
G01 X16.1741 Y24.7844
G01 X16.1762 Y24.7722
G01 X16.1796 Y24.7602
G01 X16.1840 Y24.7486
G01 X16.1896 Y24.7375
G01 X16.1963 Y24.7270
G01 X16.2040 Y24.7171
G01 X16.2125 Y24.7081
G01 X16.2220 Y24.7000
G01 X16.2295 Y24.6945
G01 X16.2402 Y24.6881
G01 X16.2514 Y24.6828
G01 X16.2632 Y24.6786
G01 X16.2752 Y24.6756
G01 X16.2875 Y24.6738
G01 X16.3000 Y24.6732
G00 Z2.0000
G00 X16.3000 Y25.6732
G01 F60.00
G01 Z-0.1000
G01 F120.00
G01 X19.6000 Y25.6732
G01 X19.6124 Y25.6738
G01 X19.6277 Y25.6762
G01 X19.6397 Y25.6796
G01 X19.6513 Y25.6840
G01 X19.6652 Y25.6912
G01 X19.6730 Y25.6963
G01 X19.6804 Y25.7019
G01 X19.6874 Y25.7081
G01 X19.6939 Y25.7148
G01 X19.7036 Y25.7270
G01 X19.7087 Y25.7348
G01 X19.7132 Y25.7430
G01 X19.7171 Y25.7514
G01 X19.7204 Y25.7602
G01 X19.7243 Y25.7752
G01 X19.7258 Y25.7844
G01 X19.7266 Y25.7937
G01 X19.7268 Y27.1000
G01 X19.7262 Y27.1124
G01 X19.7237 Y27.1277
G01 X19.7204 Y27.1397
G01 X19.7159 Y27.1513
G01 X19.7087 Y27.1652
G01 X19.7036 Y27.1730
G01 X19.6980 Y27.1804
G01 X19.6918 Y27.1874
G01 X19.6851 Y27.1939
G01 X19.6780 Y27.1999
G01 X19.6704 Y27.2054
G01 X19.6625 Y27.2103
G01 X19.6542 Y27.2146
G01 X19.6456 Y27.2183
G01 X19.6368 Y27.2213
G01 X19.6216 Y27.2249
G01 X19.6124 Y27.2262
G01 X19.6031 Y27.2267
G01 X16.3000 Y27.2268
G01 X16.2875 Y27.2262
G01 X16.2752 Y27.2243
G01 X16.2602 Y27.2204
G01 X16.2486 Y27.2159
G01 X16.2402 Y27.2118
G01 X16.2321 Y27.2071
G01 X16.2195 Y27.1980
G01 X16.2081 Y27.1874
G01 X16.2019 Y27.1804
G01 X16.1963 Y27.1730
G01 X16.1912 Y27.1652
G01 X16.1867 Y27.1570
G01 X16.1828 Y27.1485
G01 X16.1796 Y27.1397
G01 X16.1770 Y27.1308
G01 X16.1750 Y27.1216
G01 X16.1733 Y27.1062
G01 X16.1732 Y25.7969
G01 X16.1741 Y25.7844
G01 X16.1762 Y25.7722
G01 X16.1796 Y25.7602
G01 X16.1840 Y25.7486
G01 X16.1896 Y25.7375
G01 X16.1963 Y25.7270
G01 X16.2040 Y25.7171
G01 X16.2125 Y25.7081
G01 X16.2220 Y25.7000
G01 X16.2321 Y25.6928
G01 X16.2430 Y25.6867
G01 X16.2543 Y25.6817
G01 X16.2661 Y25.6778
G01 X16.2783 Y25.6750
G01 X16.2906 Y25.6735
G01 X16.3000 Y25.6732
G00 Z2.0000
G00 X16.3000 Y27.4732
G01 F60.00
G01 Z-0.1000
G01 F120.00
G01 X19.6000 Y27.4732
G01 X19.6124 Y27.4738
G01 X19.6277 Y27.4762
G01 X19.6397 Y27.4796
G01 X19.6542 Y27.4853
G01 X19.6678 Y27.4928
G01 X19.6755 Y27.4981
G01 X19.6828 Y27.5040
G01 X19.6939 Y27.5148
G01 X19.6999 Y27.5220
G01 X19.7054 Y27.5295
G01 X19.7132 Y27.5430
G01 X19.7171 Y27.5514
G01 X19.7204 Y27.5602
G01 X19.7243 Y27.5752
G01 X19.7258 Y27.5844
G01 X19.7266 Y27.5937
G01 X19.7268 Y28.1000
G01 X19.7264 Y28.1093
G01 X19.7254 Y28.1186
G01 X19.7230 Y28.1308
G01 X19.7194 Y28.1427
G01 X19.7146 Y28.1542
G01 X19.7103 Y28.1625
G01 X19.7036 Y28.1730
G01 X19.6960 Y28.1828
G01 X19.6874 Y28.1918
G01 X19.6780 Y28.1999
G01 X19.6704 Y28.2054
G01 X19.6597 Y28.2118
G01 X19.6513 Y28.2159
G01 X19.6397 Y28.2204
G01 X19.6277 Y28.2237
G01 X19.6186 Y28.2254
G01 X19.6062 Y28.2266
G01 X18.8598 Y28.2268
G01 X19.7061 Y29.0730
G01 X33.7938 Y29.0730
G01 X35.1857 Y27.6813
G01 X35.2061 Y27.6627
G01 X35.2133 Y27.6567
G01 X35.2380 Y27.6383
G01 X35.2458 Y27.6332
G01 X35.2723 Y27.6175
G01 X35.3000 Y27.6043
G01 X35.3086 Y27.6006
G01 X35.3346 Y27.5912
G01 X35.3465 Y27.5876
G01 X35.3734 Y27.5809
G01 X35.3826 Y27.5792
G01 X35.4130 Y27.5749
G01 X35.4500 Y27.5730
G01 X37.8232 Y27.5730
G01 X37.8232 Y27.3500
G01 X37.8247 Y27.3161
G01 X37.8293 Y27.2826
G01 X37.8318 Y27.2704
G01 X37.8394 Y27.2406
G01 X37.8496 Y27.2116
G01 X37.8531 Y27.2029
G01 X37.8677 Y27.1723
G01 X37.8833 Y27.1459
G01 X37.8884 Y27.1381
G01 X37.9049 Y27.1158
G01 X37.9107 Y27.1085
G01 X37.9314 Y27.0858
G01 X37.9380 Y27.0792
G01 X37.9609 Y27.0587
G01 X37.9855 Y27.0403
G01 X37.9932 Y27.0350
G01 X38.0169 Y27.0207
G01 X38.0251 Y27.0162
G01 X38.0529 Y27.0031
G01 X38.0616 Y26.9996
G01 X38.0876 Y26.9903
G01 X38.1204 Y26.9818
G01 X38.1326 Y26.9793
G01 X38.1630 Y26.9750
G01 X38.2000 Y26.9732
G01 X39.7062 Y26.9733
G01 X39.7369 Y26.9750
G01 X39.7735 Y26.9804
G01 X39.8093 Y26.9894
G01 X39.8384 Y26.9996
G01 X39.8498 Y27.0044
G01 X39.8748 Y27.0162
G01 X39.8830 Y27.0207
G01 X39.9093 Y27.0367
G01 X39.9390 Y27.0587
G01 X39.9664 Y27.0835
G01 X39.9872 Y27.1062
G01 X39.9951 Y27.1158
G01 X40.0115 Y27.1381
G01 X40.0166 Y27.1459
G01 X40.0323 Y27.1723
G01 X40.0481 Y27.2058
G01 X40.0605 Y27.2406
G01 X40.0689 Y27.2734
G01 X40.0706 Y27.2826
G01 X40.0750 Y27.3130
G01 X40.0768 Y27.3500
G01 X40.0766 Y28.5562
G01 X40.0750 Y28.5869
G01 X40.0695 Y28.6235
G01 X40.0605 Y28.6593
G01 X40.0503 Y28.6884
G01 X40.0456 Y28.6998
G01 X40.0337 Y28.7248
G01 X40.0292 Y28.7330
G01 X40.0133 Y28.7593
G01 X39.9912 Y28.7890
G01 X39.9664 Y28.8164
G01 X39.9390 Y28.8412
G01 X39.9093 Y28.8633
G01 X39.8830 Y28.8792
G01 X39.8720 Y28.8851
G01 X39.8470 Y28.8969
G01 X39.8384 Y28.9003
G01 X39.8093 Y28.9105
G01 X39.7735 Y28.9195
G01 X39.7369 Y28.9250
G01 X39.7000 Y28.9268
G01 X38.2000 Y28.9268
G01 X38.1692 Y28.9254
G01 X38.1569 Y28.9242
G01 X38.1265 Y28.9195
G01 X38.0966 Y28.9122
G01 X38.0876 Y28.9096
G01 X38.0558 Y28.8981
G01 X38.0279 Y28.8851
G01 X38.0196 Y28.8808
G01 X37.9932 Y28.8650
G01 X37.9855 Y28.8597
G01 X37.9609 Y28.8412
G01 X37.9380 Y28.8207
G01 X37.9292 Y28.8119
G01 X37.9087 Y28.7890
G01 X37.8903 Y28.7644
G01 X37.8850 Y28.7567
G01 X37.8692 Y28.7303
G01 X37.8649 Y28.7220
G01 X37.8518 Y28.6942
G01 X37.8394 Y28.6593
G01 X37.8304 Y28.6235
G01 X37.8253 Y28.5900
G01 X37.8245 Y28.5807
G01 X37.8232 Y28.5500
G01 X37.8232 Y28.3269
G01 X35.6061 Y28.3269
G01 X34.2120 Y29.7208
G01 X34.1891 Y29.7413
G01 X34.1594 Y29.7634
G01 X34.1276 Y29.7824
G01 X34.0999 Y29.7957
G01 X34.0913 Y29.7994
G01 X34.0653 Y29.8087
G01 X34.0534 Y29.8123
G01 X34.0235 Y29.8196
G01 X33.9931 Y29.8243
G01 X33.9838 Y29.8253
G01 X33.9500 Y29.8269
G01 X19.5437 Y29.8267
G01 X19.5130 Y29.8251
G01 X19.4764 Y29.8196
G01 X19.4405 Y29.8107
G01 X19.4057 Y29.7982
G01 X19.3723 Y29.7824
G01 X19.3406 Y29.7634
G01 X19.3108 Y29.7413
G01 X19.2879 Y29.7208
G01 X17.7937 Y28.2268
G01 X16.2969 Y28.2267
G01 X16.2875 Y28.2262
G01 X16.2783 Y28.2249
G01 X16.2692 Y28.2230
G01 X16.2602 Y28.2204
G01 X16.2514 Y28.2171
G01 X16.2430 Y28.2132
G01 X16.2348 Y28.2087
G01 X16.2244 Y28.2018
G01 X16.2125 Y28.1918
G01 X16.2040 Y28.1828
G01 X16.1963 Y28.1730
G01 X16.1881 Y28.1597
G01 X16.1817 Y28.1456
G01 X16.1778 Y28.1338
G01 X16.1750 Y28.1216
G01 X16.1735 Y28.1093
G01 X16.1732 Y28.1000
G01 X16.1732 Y27.6000
G01 X16.1738 Y27.5875
G01 X16.1750 Y27.5783
G01 X16.1778 Y27.5661
G01 X16.1817 Y27.5543
G01 X16.1867 Y27.5430
G01 X16.1928 Y27.5321
G01 X16.2000 Y27.5220
G01 X16.2060 Y27.5148
G01 X16.2148 Y27.5060
G01 X16.2244 Y27.4981
G01 X16.2348 Y27.4912
G01 X16.2430 Y27.4867
G01 X16.2543 Y27.4817
G01 X16.2661 Y27.4778
G01 X16.2783 Y27.4750
G01 X16.2906 Y27.4735
G01 X16.3000 Y27.4732
G00 Z2.0000
G00 X16.7990 Y28.9437
G01 F60.00
G01 Z-0.1000
G01 F120.00
G01 X16.7990 Y28.6491
G01 X16.8001 Y28.6251
G01 X16.8011 Y28.6158
G01 X16.8043 Y28.5951
G01 X16.8110 Y28.5688
G01 X16.8201 Y28.5432
G01 X16.8289 Y28.5242
G01 X16.8332 Y28.5159
G01 X16.8457 Y28.4953
G01 X16.8599 Y28.4759
G01 X16.8758 Y28.4579
G01 X16.8846 Y28.4491
G01 X16.9003 Y28.4351
G01 X16.9221 Y28.4189
G01 X16.9454 Y28.4050
G01 X16.9643 Y28.3959
G01 X16.9758 Y28.3911
G01 X16.9985 Y28.3833
G01 X17.0219 Y28.3776
G01 X17.0457 Y28.3739
G01 X17.0697 Y28.3724
G01 X17.0821 Y28.3724
G01 X17.1030 Y28.3736
G01 X17.1269 Y28.3770
G01 X17.1360 Y28.3789
G01 X17.1563 Y28.3842
G01 X17.1790 Y28.3922
G01 X17.1875 Y28.3959
G01 X17.2064 Y28.4050
G01 X17.2245 Y28.4156
G01 X17.2323 Y28.4207
G01 X17.2516 Y28.4351
G01 X17.2695 Y28.4512
G01 X17.2760 Y28.4579
G01 X17.2899 Y28.4735
G01 X17.3025 Y28.4902
G01 X17.3078 Y28.4979
G01 X17.3201 Y28.5186
G01 X17.3292 Y28.5375
G01 X17.3329 Y28.5461
G01 X17.3409 Y28.5688
G01 X17.3468 Y28.5921
G01 X17.3507 Y28.6158
G01 X17.3519 Y28.6282
G01 X17.3528 Y28.6491
G01 X17.3528 Y28.9437
G01 X17.6504 Y28.9437
G01 X17.6745 Y28.9450
G01 X17.6983 Y28.9484
G01 X17.7217 Y28.9540
G01 X17.7336 Y28.9576
G01 X17.7533 Y28.9648
G01 X17.7723 Y28.9736
G01 X17.7806 Y28.9779
G01 X17.7959 Y28.9870
G01 X17.8037 Y28.9921
G01 X17.8206 Y29.0046
G01 X17.8277 Y29.0106
G01 X17.8431 Y29.0248
G01 X17.8573 Y29.0402
G01 X17.8633 Y29.0473
G01 X17.8758 Y29.0642
G01 X17.8809 Y29.0720
G01 X17.8915 Y29.0900
G01 X17.9006 Y29.1089
G01 X17.9043 Y29.1175
G01 X17.9113 Y29.1372
G01 X17.9182 Y29.1635
G01 X17.9221 Y29.1872
G01 X17.9233 Y29.1996
G01 X17.9242 Y29.2237
G01 X17.9229 Y29.2477
G01 X17.9189 Y29.2746
G01 X17.9123 Y29.3009
G01 X17.9054 Y29.3207
G01 X17.9006 Y29.3322
G01 X17.8929 Y29.3483
G01 X17.8884 Y29.3565
G01 X17.8775 Y29.3744
G01 X17.8614 Y29.3962
G01 X17.8431 Y29.4163
G01 X17.8277 Y29.4305
G01 X17.8181 Y29.4384
G01 X17.7985 Y29.4525
G01 X17.7806 Y29.4632
G01 X17.7723 Y29.4675
G01 X17.7533 Y29.4764
G01 X17.7336 Y29.4836
G01 X17.7247 Y29.4864
G01 X17.7044 Y29.4915
G01 X17.6952 Y29.4932
G01 X17.6745 Y29.4961
G01 X17.6473 Y29.4974
G01 X17.3528 Y29.4974
G01 X17.3527 Y29.7951
G01 X17.3514 Y29.8191
G01 X17.3480 Y29.8429
G01 X17.3425 Y29.8664
G01 X17.3389 Y29.8783
G01 X17.3329 Y29.8951
G01 X17.3292 Y29.9036
G01 X17.3201 Y29.9225
G01 X17.3094 Y29.9406
G01 X17.3044 Y29.9484
G01 X17.2919 Y29.9652
G01 X17.2859 Y29.9724
G01 X17.2717 Y29.9878
G01 X17.2563 Y30.0020
G01 X17.2491 Y30.0080
G01 X17.2323 Y30.0204
G01 X17.2245 Y30.0255
G01 X17.2064 Y30.0362
G01 X17.1875 Y30.0453
G01 X17.1790 Y30.0489
G01 X17.1592 Y30.0560
G01 X17.1330 Y30.0629
G01 X17.1092 Y30.0668
G01 X17.0968 Y30.0680
G01 X17.0728 Y30.0688
G01 X17.0488 Y30.0675
G01 X17.0219 Y30.0635
G01 X16.9955 Y30.0569
G01 X16.9758 Y30.0500
G01 X16.9671 Y30.0466
G01 X16.9509 Y30.0390
G01 X16.9400 Y30.0331
G01 X16.9221 Y30.0222
G01 X16.9003 Y30.0060
G01 X16.8801 Y29.9878
G01 X16.8659 Y29.9724
G01 X16.8580 Y29.9627
G01 X16.8440 Y29.9432
G01 X16.8332 Y29.9252
G01 X16.8289 Y29.9170
G01 X16.8201 Y29.8979
G01 X16.8129 Y29.8783
G01 X16.8101 Y29.8694
G01 X16.8050 Y29.8491
G01 X16.8033 Y29.8399
G01 X16.8004 Y29.8191
G01 X16.7990 Y29.7920
G01 X16.7990 Y29.4974
G01 X16.5014 Y29.4974
G01 X16.4773 Y29.4961
G01 X16.4535 Y29.4927
G01 X16.4301 Y29.4872
G01 X16.4182 Y29.4836
G01 X16.3985 Y29.4764
G01 X16.3795 Y29.4675
G01 X16.3712 Y29.4632
G01 X16.3559 Y29.4541
G01 X16.3481 Y29.4490
G01 X16.3313 Y29.4365
G01 X16.3241 Y29.4305
G01 X16.3087 Y29.4163
G01 X16.2945 Y29.4009
G01 X16.2885 Y29.3938
G01 X16.2760 Y29.3770
G01 X16.2709 Y29.3691
G01 X16.2603 Y29.3511
G01 X16.2512 Y29.3322
G01 X16.2475 Y29.3236
G01 X16.2405 Y29.3039
G01 X16.2336 Y29.2776
G01 X16.2297 Y29.2539
G01 X16.2285 Y29.2415
G01 X16.2276 Y29.2175
G01 X16.2289 Y29.1934
G01 X16.2329 Y29.1665
G01 X16.2395 Y29.1402
G01 X16.2464 Y29.1204
G01 X16.2512 Y29.1089
G01 X16.2589 Y29.0928
G01 X16.2634 Y29.0846
G01 X16.2743 Y29.0667
G01 X16.2904 Y29.0449
G01 X16.3087 Y29.0248
G01 X16.3241 Y29.0106
G01 X16.3337 Y29.0027
G01 X16.3533 Y28.9887
G01 X16.3712 Y28.9779
G01 X16.3795 Y28.9736
G01 X16.3985 Y28.9648
G01 X16.4182 Y28.9576
G01 X16.4271 Y28.9547
G01 X16.4474 Y28.9497
G01 X16.4566 Y28.9479
G01 X16.4773 Y28.9450
G01 X16.5045 Y28.9437
G01 X16.7990 Y28.9437
G00 Z2.0000
G00 X24.3000 Y25.6732
G01 F60.00
G01 Z-0.1000
G01 F120.00
G01 X27.6000 Y25.6732
G01 X27.6124 Y25.6738
G01 X27.6277 Y25.6762
G01 X27.6397 Y25.6796
G01 X27.6513 Y25.6840
G01 X27.6652 Y25.6912
G01 X27.6730 Y25.6963
G01 X27.6804 Y25.7019
G01 X27.6874 Y25.7081
G01 X27.6939 Y25.7148
G01 X27.7036 Y25.7270
G01 X27.7087 Y25.7348
G01 X27.7132 Y25.7430
G01 X27.7171 Y25.7514
G01 X27.7204 Y25.7602
G01 X27.7243 Y25.7752
G01 X27.7258 Y25.7844
G01 X27.7266 Y25.7937
G01 X27.7268 Y27.1000
G01 X27.7262 Y27.1124
G01 X27.7237 Y27.1277
G01 X27.7204 Y27.1397
G01 X27.7159 Y27.1513
G01 X27.7087 Y27.1652
G01 X27.7036 Y27.1730
G01 X27.6980 Y27.1804
G01 X27.6918 Y27.1874
G01 X27.6851 Y27.1939
G01 X27.6780 Y27.1999
G01 X27.6704 Y27.2054
G01 X27.6625 Y27.2103
G01 X27.6542 Y27.2146
G01 X27.6456 Y27.2183
G01 X27.6368 Y27.2213
G01 X27.6216 Y27.2249
G01 X27.6124 Y27.2262
G01 X27.6031 Y27.2267
G01 X24.3000 Y27.2268
G01 X24.2875 Y27.2262
G01 X24.2752 Y27.2243
G01 X24.2602 Y27.2204
G01 X24.2486 Y27.2159
G01 X24.2402 Y27.2118
G01 X24.2321 Y27.2071
G01 X24.2195 Y27.1980
G01 X24.2081 Y27.1874
G01 X24.2019 Y27.1804
G01 X24.1963 Y27.1730
G01 X24.1912 Y27.1652
G01 X24.1867 Y27.1570
G01 X24.1828 Y27.1485
G01 X24.1796 Y27.1397
G01 X24.1770 Y27.1308
G01 X24.1750 Y27.1216
G01 X24.1733 Y27.1062
G01 X24.1732 Y25.7969
G01 X24.1741 Y25.7844
G01 X24.1762 Y25.7722
G01 X24.1796 Y25.7602
G01 X24.1840 Y25.7486
G01 X24.1896 Y25.7375
G01 X24.1963 Y25.7270
G01 X24.2040 Y25.7171
G01 X24.2125 Y25.7081
G01 X24.2220 Y25.7000
G01 X24.2321 Y25.6928
G01 X24.2430 Y25.6867
G01 X24.2543 Y25.6817
G01 X24.2661 Y25.6778
G01 X24.2783 Y25.6750
G01 X24.2906 Y25.6735
G01 X24.3000 Y25.6732
G00 Z2.0000
G00 X24.3000 Y24.6732
G01 F60.00
G01 Z-0.1000
G01 F120.00
G01 X38.2095 Y24.6730
G01 X38.2573 Y24.6378
G01 X38.3368 Y24.5900
G01 X38.3451 Y24.5857
G01 X38.4233 Y24.5487
G01 X38.4320 Y24.5453
G01 X38.5164 Y24.5152
G01 X38.6094 Y24.4919
G01 X38.7042 Y24.4779
G01 X38.7969 Y24.4732
G01 X39.1000 Y24.4732
G01 X39.1895 Y24.4774
G01 X39.2019 Y24.4786
G01 X39.2905 Y24.4919
G01 X39.3835 Y24.5152
G01 X39.4738 Y24.5475
G01 X39.5604 Y24.5885
G01 X39.6426 Y24.6378
G01 X39.7196 Y24.6949
G01 X39.7907 Y24.7593
G01 X39.8550 Y24.8303
G01 X39.9121 Y24.9073
G01 X39.9614 Y24.9895
G01 X40.0024 Y25.0762
G01 X40.0347 Y25.1664
G01 X40.0580 Y25.2594
G01 X40.0721 Y25.3542
G01 X40.0768 Y25.4500
G01 X40.0725 Y25.5395
G01 X40.0713 Y25.5519
G01 X40.0580 Y25.6405
G01 X40.0347 Y25.7335
G01 X40.0024 Y25.8238
G01 X39.9642 Y25.9049
G01 X39.9584 Y25.9158
G01 X39.9155 Y25.9874
G01 X39.9086 Y25.9977
G01 X39.8550 Y26.0696
G01 X39.7950 Y26.1362
G01 X39.7862 Y26.1450
G01 X39.7196 Y26.2050
G01 X39.6477 Y26.2586
G01 X39.6400 Y26.2638
G01 X39.5604 Y26.3114
G01 X39.4738 Y26.3524
G01 X39.3835 Y26.3847
G01 X39.2966 Y26.4066
G01 X39.2875 Y26.4086
G01 X39.1957 Y26.4221
G01 X39.1031 Y26.4267
G01 X38.8000 Y26.4268
G01 X38.7104 Y26.4225
G01 X38.6980 Y26.4213
G01 X38.6094 Y26.4080
G01 X38.5164 Y26.3847
G01 X38.4262 Y26.3524
G01 X38.3395 Y26.3114
G01 X38.2573 Y26.2621
G01 X38.1803 Y26.2050
G01 X38.1093 Y26.1407
G01 X38.0490 Y26.0744
G01 X38.0411 Y26.0647
G01 X37.9878 Y25.9926
G01 X37.9385 Y25.9104
G01 X37.8975 Y25.8238
G01 X37.8672 Y25.7394
G01 X37.8636 Y25.7275
G01 X37.8419 Y25.6405
G01 X37.8286 Y25.5519
G01 X37.8274 Y25.5395
G01 X37.8232 Y25.4531
G01 X37.8241 Y25.4269
G01 X24.2937 Y25.4266
G01 X24.2844 Y25.4258
G01 X24.2752 Y25.4243
G01 X24.2632 Y25.4213
G01 X24.2543 Y25.4183
G01 X24.2430 Y25.4132
G01 X24.2348 Y25.4087
G01 X24.2244 Y25.4018
G01 X24.2171 Y25.3960
G01 X24.2081 Y25.3874
G01 X24.2019 Y25.3804
G01 X24.1945 Y25.3704
G01 X24.1896 Y25.3625
G01 X24.1853 Y25.3542
G01 X24.1806 Y25.3427
G01 X24.1778 Y25.3338
G01 X24.1756 Y25.3247
G01 X24.1738 Y25.3124
G01 X24.1732 Y25.3000
G01 X24.1732 Y24.8000
G01 X24.1738 Y24.7875
G01 X24.1756 Y24.7752
G01 X24.1786 Y24.7632
G01 X24.1828 Y24.7514
G01 X24.1881 Y24.7402
G01 X24.1945 Y24.7295
G01 X24.2019 Y24.7195
G01 X24.2103 Y24.7103
G01 X24.2195 Y24.7019
G01 X24.2295 Y24.6945
G01 X24.2402 Y24.6881
G01 X24.2514 Y24.6828
G01 X24.2632 Y24.6786
G01 X24.2752 Y24.6756
G01 X24.2875 Y24.6738
G01 X24.3000 Y24.6732
G00 Z2.0000
G00 X28.4990 Y27.6437
G01 F60.00
G01 Z-0.1000
G01 F120.00
G01 X28.4990 Y27.3491
G01 X28.5001 Y27.3251
G01 X28.5011 Y27.3158
G01 X28.5043 Y27.2951
G01 X28.5110 Y27.2688
G01 X28.5201 Y27.2432
G01 X28.5289 Y27.2242
G01 X28.5332 Y27.2159
G01 X28.5457 Y27.1953
G01 X28.5599 Y27.1759
G01 X28.5758 Y27.1579
G01 X28.5846 Y27.1491
G01 X28.6003 Y27.1351
G01 X28.6221 Y27.1189
G01 X28.6454 Y27.1050
G01 X28.6643 Y27.0959
G01 X28.6758 Y27.0911
G01 X28.6985 Y27.0833
G01 X28.7219 Y27.0776
G01 X28.7457 Y27.0739
G01 X28.7697 Y27.0724
G01 X28.7821 Y27.0724
G01 X28.8030 Y27.0736
G01 X28.8269 Y27.0770
G01 X28.8360 Y27.0789
G01 X28.8563 Y27.0842
G01 X28.8790 Y27.0922
G01 X28.8875 Y27.0959
G01 X28.9064 Y27.1050
G01 X28.9245 Y27.1156
G01 X28.9323 Y27.1207
G01 X28.9516 Y27.1351
G01 X28.9695 Y27.1512
G01 X28.9760 Y27.1579
G01 X28.9899 Y27.1735
G01 X29.0025 Y27.1902
G01 X29.0078 Y27.1979
G01 X29.0201 Y27.2186
G01 X29.0292 Y27.2375
G01 X29.0329 Y27.2461
G01 X29.0409 Y27.2688
G01 X29.0468 Y27.2921
G01 X29.0507 Y27.3158
G01 X29.0519 Y27.3282
G01 X29.0528 Y27.3491
G01 X29.0528 Y27.6437
G01 X29.3504 Y27.6437
G01 X29.3745 Y27.6450
G01 X29.3983 Y27.6484
G01 X29.4217 Y27.6540
G01 X29.4336 Y27.6576
G01 X29.4533 Y27.6648
G01 X29.4723 Y27.6736
G01 X29.4806 Y27.6779
G01 X29.4959 Y27.6870
G01 X29.5037 Y27.6921
G01 X29.5206 Y27.7046
G01 X29.5277 Y27.7106
G01 X29.5431 Y27.7248
G01 X29.5573 Y27.7402
G01 X29.5633 Y27.7473
G01 X29.5758 Y27.7642
G01 X29.5809 Y27.7720
G01 X29.5915 Y27.7900
G01 X29.6006 Y27.8089
G01 X29.6043 Y27.8175
G01 X29.6113 Y27.8372
G01 X29.6182 Y27.8635
G01 X29.6221 Y27.8872
G01 X29.6233 Y27.8996
G01 X29.6242 Y27.9237
G01 X29.6229 Y27.9477
G01 X29.6189 Y27.9746
G01 X29.6123 Y28.0009
G01 X29.6054 Y28.0207
G01 X29.6006 Y28.0322
G01 X29.5929 Y28.0483
G01 X29.5884 Y28.0565
G01 X29.5775 Y28.0744
G01 X29.5614 Y28.0962
G01 X29.5431 Y28.1163
G01 X29.5277 Y28.1305
G01 X29.5181 Y28.1384
G01 X29.4985 Y28.1525
G01 X29.4806 Y28.1632
G01 X29.4723 Y28.1675
G01 X29.4533 Y28.1764
G01 X29.4336 Y28.1836
G01 X29.4247 Y28.1864
G01 X29.4044 Y28.1915
G01 X29.3952 Y28.1932
G01 X29.3745 Y28.1961
G01 X29.3473 Y28.1974
G01 X29.0528 Y28.1974
G01 X29.0527 Y28.4951
G01 X29.0514 Y28.5191
G01 X29.0480 Y28.5429
G01 X29.0425 Y28.5664
G01 X29.0389 Y28.5783
G01 X29.0329 Y28.5951
G01 X29.0292 Y28.6036
G01 X29.0201 Y28.6225
G01 X29.0094 Y28.6406
G01 X29.0044 Y28.6484
G01 X28.9919 Y28.6652
G01 X28.9859 Y28.6724
G01 X28.9717 Y28.6878
G01 X28.9563 Y28.7020
G01 X28.9491 Y28.7080
G01 X28.9323 Y28.7204
G01 X28.9245 Y28.7255
G01 X28.9064 Y28.7362
G01 X28.8875 Y28.7453
G01 X28.8790 Y28.7489
G01 X28.8592 Y28.7560
G01 X28.8330 Y28.7629
G01 X28.8092 Y28.7668
G01 X28.7968 Y28.7680
G01 X28.7728 Y28.7688
G01 X28.7488 Y28.7675
G01 X28.7219 Y28.7635
G01 X28.6955 Y28.7569
G01 X28.6758 Y28.7500
G01 X28.6671 Y28.7466
G01 X28.6509 Y28.7390
G01 X28.6400 Y28.7331
G01 X28.6221 Y28.7222
G01 X28.6003 Y28.7060
G01 X28.5801 Y28.6878
G01 X28.5659 Y28.6724
G01 X28.5580 Y28.6627
G01 X28.5440 Y28.6432
G01 X28.5332 Y28.6252
G01 X28.5289 Y28.6170
G01 X28.5201 Y28.5979
G01 X28.5129 Y28.5783
G01 X28.5101 Y28.5694
G01 X28.5050 Y28.5491
G01 X28.5033 Y28.5399
G01 X28.5004 Y28.5191
G01 X28.4990 Y28.4920
G01 X28.4990 Y28.1974
G01 X28.2014 Y28.1974
G01 X28.1773 Y28.1961
G01 X28.1535 Y28.1927
G01 X28.1301 Y28.1872
G01 X28.1182 Y28.1836
G01 X28.0985 Y28.1764
G01 X28.0795 Y28.1675
G01 X28.0712 Y28.1632
G01 X28.0559 Y28.1541
G01 X28.0481 Y28.1490
G01 X28.0313 Y28.1365
G01 X28.0241 Y28.1305
G01 X28.0087 Y28.1163
G01 X27.9945 Y28.1009
G01 X27.9885 Y28.0938
G01 X27.9760 Y28.0770
G01 X27.9709 Y28.0691
G01 X27.9603 Y28.0511
G01 X27.9512 Y28.0322
G01 X27.9475 Y28.0236
G01 X27.9405 Y28.0039
G01 X27.9336 Y27.9776
G01 X27.9297 Y27.9539
G01 X27.9285 Y27.9415
G01 X27.9276 Y27.9175
G01 X27.9289 Y27.8934
G01 X27.9329 Y27.8665
G01 X27.9395 Y27.8402
G01 X27.9464 Y27.8204
G01 X27.9512 Y27.8089
G01 X27.9589 Y27.7928
G01 X27.9634 Y27.7846
G01 X27.9743 Y27.7667
G01 X27.9904 Y27.7449
G01 X28.0087 Y27.7248
G01 X28.0241 Y27.7106
G01 X28.0337 Y27.7027
G01 X28.0533 Y27.6887
G01 X28.0712 Y27.6779
G01 X28.0795 Y27.6736
G01 X28.0985 Y27.6648
G01 X28.1182 Y27.6576
G01 X28.1271 Y27.6547
G01 X28.1474 Y27.6497
G01 X28.1566 Y27.6479
G01 X28.1773 Y27.6450
G01 X28.2045 Y27.6437
G01 X28.4990 Y27.6437
G00 Z2.0000
G00 X24.3000 Y17.2732
G01 F60.00
G01 Z-0.1000
G01 F120.00
G01 X27.6000 Y17.2732
G01 X27.6124 Y17.2738
G01 X27.6277 Y17.2762
G01 X27.6397 Y17.2796
G01 X27.6513 Y17.2840
G01 X27.6597 Y17.2881
G01 X27.6678 Y17.2928
G01 X27.6804 Y17.3019
G01 X27.6874 Y17.3081
G01 X27.6939 Y17.3148
G01 X27.6999 Y17.3220
G01 X27.7054 Y17.3295
G01 X27.7103 Y17.3375
G01 X27.7146 Y17.3458
G01 X27.7204 Y17.3602
G01 X27.7243 Y17.3752
G01 X27.7258 Y17.3844
G01 X27.7266 Y17.3937
G01 X27.7268 Y18.7000
G01 X27.7262 Y18.7124
G01 X27.7243 Y18.7247
G01 X27.7213 Y18.7368
G01 X27.7159 Y18.7513
G01 X27.7118 Y18.7597
G01 X27.7071 Y18.7678
G01 X27.6980 Y18.7804
G01 X27.6918 Y18.7874
G01 X27.6851 Y18.7939
G01 X27.6780 Y18.7999
G01 X27.6704 Y18.8054
G01 X27.6570 Y18.8132
G01 X27.6485 Y18.8171
G01 X27.6397 Y18.8204
G01 X27.6308 Y18.8230
G01 X27.6216 Y18.8249
G01 X27.6124 Y18.8262
G01 X27.6031 Y18.8267
G01 X24.3000 Y18.8268
G01 X24.2875 Y18.8262
G01 X24.2752 Y18.8243
G01 X24.2632 Y18.8213
G01 X24.2486 Y18.8159
G01 X24.2348 Y18.8087
G01 X24.2270 Y18.8036
G01 X24.2195 Y18.7980
G01 X24.2125 Y18.7918
G01 X24.2060 Y18.7851
G01 X24.2000 Y18.7780
G01 X24.1945 Y18.7704
G01 X24.1867 Y18.7570
G01 X24.1828 Y18.7485
G01 X24.1796 Y18.7397
G01 X24.1770 Y18.7308
G01 X24.1750 Y18.7216
G01 X24.1733 Y18.7062
G01 X24.1732 Y17.3969
G01 X24.1741 Y17.3844
G01 X24.1762 Y17.3722
G01 X24.1796 Y17.3602
G01 X24.1840 Y17.3486
G01 X24.1896 Y17.3375
G01 X24.1963 Y17.3270
G01 X24.2040 Y17.3171
G01 X24.2125 Y17.3081
G01 X24.2220 Y17.3000
G01 X24.2321 Y17.2928
G01 X24.2430 Y17.2867
G01 X24.2543 Y17.2817
G01 X24.2661 Y17.2778
G01 X24.2783 Y17.2750
G01 X24.2906 Y17.2735
G01 X24.3000 Y17.2732
G00 Z2.0000
G00 X24.3000 Y16.2732
G01 F60.00
G01 Z-0.1000
G01 F120.00
G01 X37.8792 Y16.2730
G01 X37.8672 Y16.2394
G01 X37.8644 Y16.2305
G01 X37.8426 Y16.1436
G01 X37.8409 Y16.1344
G01 X37.8282 Y16.0488
G01 X37.8274 Y16.0395
G01 X37.8232 Y15.9500
G01 X37.8274 Y15.8604
G01 X37.8282 Y15.8511
G01 X37.8409 Y15.7655
G01 X37.8433 Y15.7533
G01 X37.8652 Y15.6664
G01 X37.8953 Y15.5820
G01 X37.9000 Y15.5705
G01 X37.9385 Y15.4895
G01 X37.9845 Y15.4125
G01 X37.9895 Y15.4047
G01 X38.0411 Y15.3352
G01 X38.0490 Y15.3256
G01 X38.1093 Y15.2593
G01 X38.1756 Y15.1990
G01 X38.1852 Y15.1911
G01 X38.2573 Y15.1378
G01 X38.3395 Y15.0885
G01 X38.4262 Y15.0475
G01 X38.5105 Y15.0172
G01 X38.5224 Y15.0136
G01 X38.6094 Y14.9919
G01 X38.6980 Y14.9786
G01 X38.7104 Y14.9774
G01 X38.7969 Y14.9732
G01 X39.1062 Y14.9733
G01 X39.1957 Y14.9779
G01 X39.2844 Y14.9909
G01 X39.2936 Y14.9926
G01 X39.3835 Y15.0152
G01 X39.4680 Y15.0453
G01 X39.4795 Y15.0500
G01 X39.5604 Y15.0885
G01 X39.6374 Y15.1345
G01 X39.6477 Y15.1414
G01 X39.7147 Y15.1911
G01 X39.7244 Y15.1990
G01 X39.7907 Y15.2593
G01 X39.8550 Y15.3303
G01 X39.9121 Y15.4073
G01 X39.9584 Y15.4841
G01 X39.9642 Y15.4951
G01 X39.9999 Y15.5705
G01 X40.0046 Y15.5820
G01 X40.0347 Y15.6664
G01 X40.0566 Y15.7533
G01 X40.0591 Y15.7655
G01 X40.0721 Y15.8542
G01 X40.0767 Y15.9469
G01 X40.0766 Y15.9562
G01 X40.0725 Y16.0395
G01 X40.0713 Y16.0519
G01 X40.0580 Y16.1405
G01 X40.0364 Y16.2275
G01 X40.0328 Y16.2394
G01 X40.0024 Y16.3238
G01 X39.9642 Y16.4049
G01 X39.9584 Y16.4158
G01 X39.9121 Y16.4926
G01 X39.8589 Y16.5647
G01 X39.8510 Y16.5744
G01 X39.7907 Y16.6407
G01 X39.7244 Y16.7010
G01 X39.7147 Y16.7089
G01 X39.6426 Y16.7621
G01 X39.5658 Y16.8084
G01 X39.5549 Y16.8142
G01 X39.4738 Y16.8524
G01 X39.3835 Y16.8847
G01 X39.2905 Y16.9080
G01 X39.2019 Y16.9213
G01 X39.1926 Y16.9223
G01 X39.1000 Y16.9268
G01 X38.7937 Y16.9266
G01 X38.7104 Y16.9225
G01 X38.6980 Y16.9213
G01 X38.6094 Y16.9080
G01 X38.5418 Y16.8912
G01 X38.5143 Y16.9187
G01 X38.4938 Y16.9373
G01 X38.4867 Y16.9433
G01 X38.4645 Y16.9598
G01 X38.4568 Y16.9651
G01 X38.4304 Y16.9809
G01 X38.3999 Y16.9957
G01 X38.3913 Y16.9994
G01 X38.3623 Y17.0097
G01 X38.3534 Y17.0123
G01 X38.3265 Y17.0190
G01 X38.3174 Y17.0207
G01 X38.2869 Y17.0251
G01 X38.2531 Y17.0269
G01 X24.2937 Y17.0266
G01 X24.2844 Y17.0258
G01 X24.2752 Y17.0243
G01 X24.2632 Y17.0213
G01 X24.2543 Y17.0183
G01 X24.2430 Y17.0132
G01 X24.2348 Y17.0087
G01 X24.2244 Y17.0018
G01 X24.2171 Y16.9960
G01 X24.2081 Y16.9874
G01 X24.2019 Y16.9804
G01 X24.1945 Y16.9704
G01 X24.1896 Y16.9625
G01 X24.1853 Y16.9542
G01 X24.1806 Y16.9427
G01 X24.1778 Y16.9338
G01 X24.1756 Y16.9247
G01 X24.1738 Y16.9124
G01 X24.1732 Y16.9000
G01 X24.1732 Y16.4000
G01 X24.1738 Y16.3875
G01 X24.1756 Y16.3752
G01 X24.1786 Y16.3632
G01 X24.1828 Y16.3514
G01 X24.1881 Y16.3402
G01 X24.1945 Y16.3295
G01 X24.2019 Y16.3195
G01 X24.2103 Y16.3103
G01 X24.2195 Y16.3019
G01 X24.2295 Y16.2945
G01 X24.2402 Y16.2881
G01 X24.2514 Y16.2828
G01 X24.2632 Y16.2786
G01 X24.2752 Y16.2756
G01 X24.2875 Y16.2738
G01 X24.3000 Y16.2732
G00 Z2.0000
G00 X25.4043 Y15.5625
G01 F60.00
G01 Z-0.1000
G01 F120.00
G01 X25.4241 Y15.5556
G01 X25.4505 Y15.5490
G01 X25.4773 Y15.5450
G01 X25.5045 Y15.5437
G01 X26.6473 Y15.5437
G01 X26.6745 Y15.5450
G01 X26.7013 Y15.5490
G01 X26.7277 Y15.5556
G01 X26.7533 Y15.5648
G01 X26.7779 Y15.5764
G01 X26.8012 Y15.5904
G01 X26.8230 Y15.6065
G01 X26.8431 Y15.6248
G01 X26.8614 Y15.6449
G01 X26.8775 Y15.6667
G01 X26.8915 Y15.6900
G01 X26.9031 Y15.7146
G01 X26.9123 Y15.7402
G01 X26.9189 Y15.7665
G01 X26.9229 Y15.7934
G01 X26.9242 Y15.8206
G01 X26.9229 Y15.8477
G01 X26.9189 Y15.8746
G01 X26.9123 Y15.9009
G01 X26.9054 Y15.9207
G01 X26.9019 Y15.9294
G01 X26.8915 Y15.9511
G01 X26.8775 Y15.9744
G01 X26.8652 Y15.9913
G01 X26.8594 Y15.9986
G01 X26.8474 Y16.0118
G01 X26.8386 Y16.0206
G01 X26.8230 Y16.0346
G01 X26.8037 Y16.0490
G01 X26.7833 Y16.0617
G01 X26.7723 Y16.0675
G01 X26.7533 Y16.0764
G01 X26.7277 Y16.0855
G01 X26.7013 Y16.0921
G01 X26.6806 Y16.0953
G01 X26.6714 Y16.0964
G01 X26.6473 Y16.0974
G01 X25.5045 Y16.0974
G01 X25.4773 Y16.0961
G01 X25.4505 Y16.0921
G01 X25.4271 Y16.0864
G01 X25.4182 Y16.0836
G01 X25.3985 Y16.0764
G01 X25.3740 Y16.0647
G01 X25.3507 Y16.0508
G01 X25.3337 Y16.0384
G01 X25.3264 Y16.0326
G01 X25.3132 Y16.0206
G01 X25.3044 Y16.0118
G01 X25.2904 Y15.9962
G01 X25.2743 Y15.9744
G01 X25.2603 Y15.9511
G01 X25.2512 Y15.9322
G01 X25.2464 Y15.9207
G01 X25.2405 Y15.9039
G01 X25.2379 Y15.8949
G01 X25.2329 Y15.8746
G01 X25.2289 Y15.8477
G01 X25.2276 Y15.8206
G01 X25.2285 Y15.7996
G01 X25.2293 Y15.7903
G01 X25.2319 Y15.7727
G01 X25.2343 Y15.7605
G01 X25.2395 Y15.7402
G01 X25.2487 Y15.7146
G01 X25.2603 Y15.6900
G01 X25.2709 Y15.6720
G01 X25.2778 Y15.6617
G01 X25.2885 Y15.6473
G01 X25.2945 Y15.6402
G01 X25.3087 Y15.6248
G01 X25.3288 Y15.6065
G01 X25.3507 Y15.5904
G01 X25.3685 Y15.5795
G01 X25.3767 Y15.5749
G01 X25.3928 Y15.5673
G01 X25.4043 Y15.5625
G00 Z2.0000
G00 X17.4043 Y15.2625
G01 F60.00
G01 Z-0.1000
G01 F120.00
G01 X17.4241 Y15.2556
G01 X17.4505 Y15.2490
G01 X17.4773 Y15.2450
G01 X17.5045 Y15.2437
G01 X18.6473 Y15.2437
G01 X18.6745 Y15.2450
G01 X18.7013 Y15.2490
G01 X18.7277 Y15.2556
G01 X18.7533 Y15.2648
G01 X18.7779 Y15.2764
G01 X18.8012 Y15.2904
G01 X18.8230 Y15.3065
G01 X18.8431 Y15.3248
G01 X18.8614 Y15.3449
G01 X18.8775 Y15.3667
G01 X18.8915 Y15.3900
G01 X18.9031 Y15.4146
G01 X18.9123 Y15.4402
G01 X18.9189 Y15.4665
G01 X18.9229 Y15.4934
G01 X18.9242 Y15.5206
G01 X18.9229 Y15.5477
G01 X18.9189 Y15.5746
G01 X18.9123 Y15.6009
G01 X18.9054 Y15.6207
G01 X18.9019 Y15.6294
G01 X18.8915 Y15.6511
G01 X18.8775 Y15.6744
G01 X18.8652 Y15.6913
G01 X18.8594 Y15.6986
G01 X18.8474 Y15.7118
G01 X18.8386 Y15.7206
G01 X18.8230 Y15.7346
G01 X18.8037 Y15.7490
G01 X18.7833 Y15.7617
G01 X18.7723 Y15.7675
G01 X18.7533 Y15.7764
G01 X18.7277 Y15.7855
G01 X18.7013 Y15.7921
G01 X18.6806 Y15.7953
G01 X18.6714 Y15.7964
G01 X18.6473 Y15.7974
G01 X17.5045 Y15.7974
G01 X17.4773 Y15.7961
G01 X17.4505 Y15.7921
G01 X17.4271 Y15.7864
G01 X17.4182 Y15.7836
G01 X17.3985 Y15.7764
G01 X17.3740 Y15.7647
G01 X17.3507 Y15.7508
G01 X17.3337 Y15.7384
G01 X17.3264 Y15.7326
G01 X17.3132 Y15.7206
G01 X17.3044 Y15.7118
G01 X17.2904 Y15.6962
G01 X17.2743 Y15.6744
G01 X17.2603 Y15.6511
G01 X17.2512 Y15.6322
G01 X17.2464 Y15.6207
G01 X17.2405 Y15.6039
G01 X17.2379 Y15.5949
G01 X17.2329 Y15.5746
G01 X17.2289 Y15.5477
G01 X17.2276 Y15.5206
G01 X17.2285 Y15.4996
G01 X17.2293 Y15.4903
G01 X17.2319 Y15.4727
G01 X17.2343 Y15.4605
G01 X17.2395 Y15.4402
G01 X17.2487 Y15.4146
G01 X17.2603 Y15.3900
G01 X17.2709 Y15.3720
G01 X17.2778 Y15.3617
G01 X17.2885 Y15.3473
G01 X17.2945 Y15.3402
G01 X17.3087 Y15.3248
G01 X17.3288 Y15.3065
G01 X17.3507 Y15.2904
G01 X17.3685 Y15.2795
G01 X17.3767 Y15.2749
G01 X17.3928 Y15.2673
G01 X17.4043 Y15.2625
G00 Z2.0000
G00 X42.0025 Y16.4473
G01 F60.00
G01 Z-0.1000
G01 F120.00
G01 X42.0025 Y15.3045
G01 X42.0038 Y15.2773
G01 X42.0067 Y15.2566
G01 X42.0085 Y15.2474
G01 X42.0144 Y15.2241
G01 X42.0236 Y15.1985
G01 X42.0352 Y15.1740
G01 X42.0492 Y15.1507
G01 X42.0653 Y15.1288
G01 X42.0836 Y15.1087
G01 X42.1037 Y15.0904
G01 X42.1255 Y15.0743
G01 X42.1488 Y15.0603
G01 X42.1734 Y15.0487
G01 X42.1990 Y15.0395
G01 X42.2253 Y15.0329
G01 X42.2522 Y15.0289
G01 X42.2794 Y15.0276
G01 X42.3065 Y15.0289
G01 X42.3272 Y15.0319
G01 X42.3364 Y15.0336
G01 X42.3597 Y15.0395
G01 X42.3795 Y15.0464
G01 X42.3910 Y15.0512
G01 X42.4126 Y15.0618
G01 X42.4332 Y15.0743
G01 X42.4526 Y15.0885
G01 X42.4706 Y15.1044
G01 X42.4794 Y15.1132
G01 X42.4934 Y15.1288
G01 X42.5078 Y15.1481
G01 X42.5205 Y15.1685
G01 X42.5263 Y15.1795
G01 X42.5352 Y15.1985
G01 X42.5443 Y15.2241
G01 X42.5509 Y15.2505
G01 X42.5541 Y15.2712
G01 X42.5552 Y15.2804
G01 X42.5562 Y15.3045
G01 X42.5562 Y16.4473
G01 X42.5549 Y16.4745
G01 X42.5520 Y16.4952
G01 X42.5503 Y16.5044
G01 X42.5443 Y16.5277
G01 X42.5352 Y16.5533
G01 X42.5235 Y16.5779
G01 X42.5096 Y16.6012
G01 X42.4934 Y16.6230
G01 X42.4751 Y16.6431
G01 X42.4550 Y16.6614
G01 X42.4383 Y16.6740
G01 X42.4306 Y16.6792
G01 X42.4153 Y16.6884
G01 X42.4043 Y16.6943
G01 X42.3824 Y16.7043
G01 X42.3627 Y16.7113
G01 X42.3537 Y16.7139
G01 X42.3334 Y16.7189
G01 X42.3065 Y16.7229
G01 X42.2794 Y16.7242
G01 X42.2522 Y16.7229
G01 X42.2253 Y16.7189
G01 X42.1990 Y16.7123
G01 X42.1734 Y16.7031
G01 X42.1488 Y16.6915
G01 X42.1255 Y16.6775
G01 X42.1037 Y16.6614
G01 X42.0836 Y16.6431
G01 X42.0694 Y16.6277
G01 X42.0634 Y16.6206
G01 X42.0509 Y16.6037
G01 X42.0383 Y16.5833
G01 X42.0324 Y16.5723
G01 X42.0248 Y16.5561
G01 X42.0213 Y16.5475
G01 X42.0144 Y16.5277
G01 X42.0078 Y16.5013
G01 X42.0038 Y16.4745
G01 X42.0025 Y16.4473
G00 Z2.0000
G00 X42.2043 Y18.2625
G01 F60.00
G01 Z-0.1000
G01 F120.00
G01 X42.2241 Y18.2556
G01 X42.2505 Y18.2490
G01 X42.2773 Y18.2450
G01 X42.2983 Y18.2438
G01 X42.5990 Y18.2437
G01 X42.5990 Y17.9491
G01 X42.6001 Y17.9251
G01 X42.6011 Y17.9158
G01 X42.6043 Y17.8951
G01 X42.6110 Y17.8688
G01 X42.6179 Y17.8490
G01 X42.6213 Y17.8403
G01 X42.6303 Y17.8214
G01 X42.6348 Y17.8132
G01 X42.6457 Y17.7953
G01 X42.6599 Y17.7759
G01 X42.6758 Y17.7579
G01 X42.6846 Y17.7491
G01 X42.7003 Y17.7351
G01 X42.7221 Y17.7189
G01 X42.7454 Y17.7050
G01 X42.7643 Y17.6959
G01 X42.7728 Y17.6922
G01 X42.7896 Y17.6861
G01 X42.8015 Y17.6825
G01 X42.8219 Y17.6776
G01 X42.8488 Y17.6736
G01 X42.8728 Y17.6723
G01 X42.8821 Y17.6724
G01 X42.9030 Y17.6736
G01 X42.9299 Y17.6776
G01 X42.9533 Y17.6833
G01 X42.9622 Y17.6861
G01 X42.9819 Y17.6933
G01 X43.0009 Y17.7022
G01 X43.0091 Y17.7065
G01 X43.0271 Y17.7172
G01 X43.0348 Y17.7225
G01 X43.0516 Y17.7351
G01 X43.0695 Y17.7512
G01 X43.0760 Y17.7579
G01 X43.0899 Y17.7735
G01 X43.1025 Y17.7902
G01 X43.1078 Y17.7979
G01 X43.1201 Y17.8186
G01 X43.1292 Y17.8375
G01 X43.1329 Y17.8461
G01 X43.1409 Y17.8688
G01 X43.1468 Y17.8921
G01 X43.1507 Y17.9158
G01 X43.1519 Y17.9282
G01 X43.1528 Y17.9491
G01 X43.1528 Y18.2437
G01 X43.4473 Y18.2437
G01 X43.4714 Y18.2448
G01 X43.4806 Y18.2458
G01 X43.5013 Y18.2490
G01 X43.5277 Y18.2556
G01 X43.5475 Y18.2625
G01 X43.5561 Y18.2660
G01 X43.5751 Y18.2749
G01 X43.5833 Y18.2795
G01 X43.6012 Y18.2904
G01 X43.6230 Y18.3065
G01 X43.6431 Y18.3248
G01 X43.6573 Y18.3402
G01 X43.6652 Y18.3498
G01 X43.6792 Y18.3693
G01 X43.6915 Y18.3900
G01 X43.7006 Y18.4089
G01 X43.7054 Y18.4204
G01 X43.7113 Y18.4372
G01 X43.7139 Y18.4462
G01 X43.7189 Y18.4665
G01 X43.7229 Y18.4934
G01 X43.7242 Y18.5206
G01 X43.7233 Y18.5415
G01 X43.7225 Y18.5508
G01 X43.7189 Y18.5746
G01 X43.7139 Y18.5949
G01 X43.7113 Y18.6039
G01 X43.7043 Y18.6236
G01 X43.7006 Y18.6322
G01 X43.6915 Y18.6511
G01 X43.6809 Y18.6691
G01 X43.6758 Y18.6770
G01 X43.6614 Y18.6962
G01 X43.6453 Y18.7141
G01 X43.6386 Y18.7206
G01 X43.6230 Y18.7346
G01 X43.6062 Y18.7472
G01 X43.5985 Y18.7525
G01 X43.5779 Y18.7647
G01 X43.5590 Y18.7738
G01 X43.5504 Y18.7775
G01 X43.5277 Y18.7855
G01 X43.5044 Y18.7915
G01 X43.4806 Y18.7953
G01 X43.4683 Y18.7966
G01 X43.4473 Y18.7974
G01 X43.1528 Y18.7974
G01 X43.1528 Y19.0920
G01 X43.1517 Y19.1160
G01 X43.1507 Y19.1253
G01 X43.1475 Y19.1460
G01 X43.1409 Y19.1724
G01 X43.1339 Y19.1921
G01 X43.1305 Y19.2008
G01 X43.1215 Y19.2197
G01 X43.1170 Y19.2279
G01 X43.1061 Y19.2458
G01 X43.0919 Y19.2652
G01 X43.0760 Y19.2833
G01 X43.0672 Y19.2921
G01 X43.0516 Y19.3060
G01 X43.0297 Y19.3222
G01 X43.0064 Y19.3362
G01 X42.9875 Y19.3453
G01 X42.9790 Y19.3489
G01 X42.9622 Y19.3550
G01 X42.9503 Y19.3586
G01 X42.9299 Y19.3635
G01 X42.9030 Y19.3675
G01 X42.8790 Y19.3688
G01 X42.8697 Y19.3687
G01 X42.8488 Y19.3675
G01 X42.8219 Y19.3635
G01 X42.7985 Y19.3578
G01 X42.7896 Y19.3550
G01 X42.7699 Y19.3478
G01 X42.7509 Y19.3390
G01 X42.7427 Y19.3347
G01 X42.7247 Y19.3239
G01 X42.7170 Y19.3186
G01 X42.7003 Y19.3060
G01 X42.6824 Y19.2899
G01 X42.6758 Y19.2833
G01 X42.6619 Y19.2676
G01 X42.6493 Y19.2509
G01 X42.6440 Y19.2432
G01 X42.6317 Y19.2225
G01 X42.6226 Y19.2036
G01 X42.6189 Y19.1951
G01 X42.6110 Y19.1724
G01 X42.6050 Y19.1491
G01 X42.6011 Y19.1253
G01 X42.5999 Y19.1129
G01 X42.5990 Y19.0920
G01 X42.5990 Y18.7974
G01 X42.3014 Y18.7974
G01 X42.2804 Y18.7964
G01 X42.2712 Y18.7953
G01 X42.2505 Y18.7921
G01 X42.2271 Y18.7864
G01 X42.2182 Y18.7836
G01 X42.1985 Y18.7764
G01 X42.1740 Y18.7647
G01 X42.1507 Y18.7508
G01 X42.1288 Y18.7346
G01 X42.1087 Y18.7163
G01 X42.0904 Y18.6962
G01 X42.0743 Y18.6744
G01 X42.0618 Y18.6538
G01 X42.0575 Y18.6455
G01 X42.0487 Y18.6265
G01 X42.0395 Y18.6009
G01 X42.0329 Y18.5746
G01 X42.0297 Y18.5539
G01 X42.0287 Y18.5446
G01 X42.0276 Y18.5175
G01 X42.0287 Y18.4965
G01 X42.0297 Y18.4872
G01 X42.0324 Y18.4696
G01 X42.0343 Y18.4605
G01 X42.0395 Y18.4402
G01 X42.0464 Y18.4204
G01 X42.0499 Y18.4117
G01 X42.0589 Y18.3928
G01 X42.0634 Y18.3846
G01 X42.0743 Y18.3667
G01 X42.0904 Y18.3449
G01 X42.1087 Y18.3248
G01 X42.1288 Y18.3065
G01 X42.1507 Y18.2904
G01 X42.1685 Y18.2795
G01 X42.1767 Y18.2749
G01 X42.1957 Y18.2660
G01 X42.2043 Y18.2625
G00 Z2.0000
G00 X42.1025 Y25.7473
G01 F60.00
G01 Z-0.1000
G01 F120.00
G01 X42.1025 Y24.6045
G01 X42.1038 Y24.5773
G01 X42.1067 Y24.5566
G01 X42.1085 Y24.5474
G01 X42.1144 Y24.5241
G01 X42.1236 Y24.4985
G01 X42.1352 Y24.4740
G01 X42.1492 Y24.4507
G01 X42.1653 Y24.4288
G01 X42.1836 Y24.4087
G01 X42.2037 Y24.3904
G01 X42.2255 Y24.3743
G01 X42.2488 Y24.3603
G01 X42.2734 Y24.3487
G01 X42.2990 Y24.3395
G01 X42.3253 Y24.3329
G01 X42.3522 Y24.3289
G01 X42.3794 Y24.3276
G01 X42.4065 Y24.3289
G01 X42.4272 Y24.3319
G01 X42.4364 Y24.3336
G01 X42.4597 Y24.3395
G01 X42.4795 Y24.3464
G01 X42.4910 Y24.3512
G01 X42.5126 Y24.3618
G01 X42.5332 Y24.3743
G01 X42.5526 Y24.3885
G01 X42.5706 Y24.4044
G01 X42.5794 Y24.4132
G01 X42.5934 Y24.4288
G01 X42.6078 Y24.4481
G01 X42.6205 Y24.4685
G01 X42.6263 Y24.4795
G01 X42.6352 Y24.4985
G01 X42.6443 Y24.5241
G01 X42.6509 Y24.5505
G01 X42.6541 Y24.5712
G01 X42.6552 Y24.5804
G01 X42.6562 Y24.6045
G01 X42.6562 Y25.7473
G01 X42.6549 Y25.7745
G01 X42.6520 Y25.7952
G01 X42.6503 Y25.8044
G01 X42.6443 Y25.8277
G01 X42.6352 Y25.8533
G01 X42.6235 Y25.8779
G01 X42.6096 Y25.9012
G01 X42.5934 Y25.9230
G01 X42.5751 Y25.9431
G01 X42.5550 Y25.9614
G01 X42.5383 Y25.9740
G01 X42.5306 Y25.9792
G01 X42.5153 Y25.9884
G01 X42.5043 Y25.9943
G01 X42.4824 Y26.0043
G01 X42.4627 Y26.0113
G01 X42.4537 Y26.0139
G01 X42.4334 Y26.0189
G01 X42.4065 Y26.0229
G01 X42.3794 Y26.0242
G01 X42.3522 Y26.0229
G01 X42.3253 Y26.0189
G01 X42.2990 Y26.0123
G01 X42.2734 Y26.0031
G01 X42.2488 Y25.9915
G01 X42.2255 Y25.9775
G01 X42.2037 Y25.9614
G01 X42.1836 Y25.9431
G01 X42.1694 Y25.9277
G01 X42.1634 Y25.9206
G01 X42.1509 Y25.9037
G01 X42.1383 Y25.8833
G01 X42.1324 Y25.8723
G01 X42.1248 Y25.8561
G01 X42.1213 Y25.8475
G01 X42.1144 Y25.8277
G01 X42.1078 Y25.8013
G01 X42.1038 Y25.7745
G01 X42.1025 Y25.7473
G00 Z2.0000
G00 X42.0990 Y27.6437
G01 F60.00
G01 Z-0.1000
G01 F120.00
G01 X42.0990 Y27.3491
G01 X42.1001 Y27.3251
G01 X42.1011 Y27.3158
G01 X42.1043 Y27.2951
G01 X42.1110 Y27.2688
G01 X42.1201 Y27.2432
G01 X42.1289 Y27.2242
G01 X42.1332 Y27.2159
G01 X42.1457 Y27.1953
G01 X42.1599 Y27.1759
G01 X42.1758 Y27.1579
G01 X42.1846 Y27.1491
G01 X42.2003 Y27.1351
G01 X42.2221 Y27.1189
G01 X42.2454 Y27.1050
G01 X42.2643 Y27.0959
G01 X42.2758 Y27.0911
G01 X42.2985 Y27.0833
G01 X42.3219 Y27.0776
G01 X42.3457 Y27.0739
G01 X42.3697 Y27.0724
G01 X42.3821 Y27.0724
G01 X42.4030 Y27.0736
G01 X42.4269 Y27.0770
G01 X42.4360 Y27.0789
G01 X42.4563 Y27.0842
G01 X42.4790 Y27.0922
G01 X42.4875 Y27.0959
G01 X42.5064 Y27.1050
G01 X42.5245 Y27.1156
G01 X42.5323 Y27.1207
G01 X42.5516 Y27.1351
G01 X42.5695 Y27.1512
G01 X42.5760 Y27.1579
G01 X42.5899 Y27.1735
G01 X42.6025 Y27.1902
G01 X42.6078 Y27.1979
G01 X42.6201 Y27.2186
G01 X42.6292 Y27.2375
G01 X42.6329 Y27.2461
G01 X42.6409 Y27.2688
G01 X42.6468 Y27.2921
G01 X42.6507 Y27.3158
G01 X42.6519 Y27.3282
G01 X42.6528 Y27.3491
G01 X42.6528 Y27.6437
G01 X42.9504 Y27.6437
G01 X42.9745 Y27.6450
G01 X42.9983 Y27.6484
G01 X43.0217 Y27.6540
G01 X43.0336 Y27.6576
G01 X43.0533 Y27.6648
G01 X43.0723 Y27.6736
G01 X43.0806 Y27.6779
G01 X43.0959 Y27.6870
G01 X43.1037 Y27.6921
G01 X43.1206 Y27.7046
G01 X43.1277 Y27.7106
G01 X43.1431 Y27.7248
G01 X43.1573 Y27.7402
G01 X43.1633 Y27.7473
G01 X43.1758 Y27.7642
G01 X43.1809 Y27.7720
G01 X43.1915 Y27.7900
G01 X43.2006 Y27.8089
G01 X43.2043 Y27.8175
G01 X43.2113 Y27.8372
G01 X43.2182 Y27.8635
G01 X43.2221 Y27.8872
G01 X43.2233 Y27.8996
G01 X43.2242 Y27.9237
G01 X43.2229 Y27.9477
G01 X43.2189 Y27.9746
G01 X43.2123 Y28.0009
G01 X43.2054 Y28.0207
G01 X43.2006 Y28.0322
G01 X43.1929 Y28.0483
G01 X43.1884 Y28.0565
G01 X43.1775 Y28.0744
G01 X43.1614 Y28.0962
G01 X43.1431 Y28.1163
G01 X43.1277 Y28.1305
G01 X43.1181 Y28.1384
G01 X43.0985 Y28.1525
G01 X43.0806 Y28.1632
G01 X43.0723 Y28.1675
G01 X43.0533 Y28.1764
G01 X43.0336 Y28.1836
G01 X43.0247 Y28.1864
G01 X43.0044 Y28.1915
G01 X42.9952 Y28.1932
G01 X42.9745 Y28.1961
G01 X42.9473 Y28.1974
G01 X42.6528 Y28.1974
G01 X42.6527 Y28.4951
G01 X42.6514 Y28.5191
G01 X42.6480 Y28.5429
G01 X42.6425 Y28.5664
G01 X42.6389 Y28.5783
G01 X42.6329 Y28.5951
G01 X42.6292 Y28.6036
G01 X42.6201 Y28.6225
G01 X42.6094 Y28.6406
G01 X42.6044 Y28.6484
G01 X42.5919 Y28.6652
G01 X42.5859 Y28.6724
G01 X42.5717 Y28.6878
G01 X42.5563 Y28.7020
G01 X42.5491 Y28.7080
G01 X42.5323 Y28.7204
G01 X42.5245 Y28.7255
G01 X42.5064 Y28.7362
G01 X42.4875 Y28.7453
G01 X42.4790 Y28.7489
G01 X42.4592 Y28.7560
G01 X42.4330 Y28.7629
G01 X42.4092 Y28.7668
G01 X42.3968 Y28.7680
G01 X42.3728 Y28.7688
G01 X42.3488 Y28.7675
G01 X42.3219 Y28.7635
G01 X42.2955 Y28.7569
G01 X42.2758 Y28.7500
G01 X42.2643 Y28.7453
G01 X42.2481 Y28.7376
G01 X42.2400 Y28.7331
G01 X42.2221 Y28.7222
G01 X42.2003 Y28.7060
G01 X42.1801 Y28.6878
G01 X42.1659 Y28.6724
G01 X42.1580 Y28.6627
G01 X42.1440 Y28.6432
G01 X42.1332 Y28.6252
G01 X42.1289 Y28.6170
G01 X42.1201 Y28.5979
G01 X42.1129 Y28.5783
G01 X42.1101 Y28.5694
G01 X42.1050 Y28.5491
G01 X42.1033 Y28.5399
G01 X42.1004 Y28.5191
G01 X42.0990 Y28.4920
G01 X42.0990 Y28.1974
G01 X41.8014 Y28.1974
G01 X41.7773 Y28.1961
G01 X41.7535 Y28.1927
G01 X41.7301 Y28.1872
G01 X41.7182 Y28.1836
G01 X41.6985 Y28.1764
G01 X41.6795 Y28.1675
G01 X41.6712 Y28.1632
G01 X41.6559 Y28.1541
G01 X41.6481 Y28.1490
G01 X41.6313 Y28.1365
G01 X41.6241 Y28.1305
G01 X41.6087 Y28.1163
G01 X41.5945 Y28.1009
G01 X41.5885 Y28.0938
G01 X41.5760 Y28.0770
G01 X41.5709 Y28.0691
G01 X41.5603 Y28.0511
G01 X41.5512 Y28.0322
G01 X41.5475 Y28.0236
G01 X41.5405 Y28.0039
G01 X41.5336 Y27.9776
G01 X41.5297 Y27.9539
G01 X41.5285 Y27.9415
G01 X41.5276 Y27.9175
G01 X41.5289 Y27.8934
G01 X41.5329 Y27.8665
G01 X41.5395 Y27.8402
G01 X41.5464 Y27.8204
G01 X41.5512 Y27.8089
G01 X41.5589 Y27.7928
G01 X41.5634 Y27.7846
G01 X41.5743 Y27.7667
G01 X41.5904 Y27.7449
G01 X41.6087 Y27.7248
G01 X41.6241 Y27.7106
G01 X41.6337 Y27.7027
G01 X41.6533 Y27.6887
G01 X41.6712 Y27.6779
G01 X41.6795 Y27.6736
G01 X41.6985 Y27.6648
G01 X41.7182 Y27.6576
G01 X41.7271 Y27.6547
G01 X41.7474 Y27.6497
G01 X41.7566 Y27.6479
G01 X41.7773 Y27.6450
G01 X41.8045 Y27.6437
G01 X42.0990 Y27.6437
G00 Z2.0000
M05
G00 Z2.0000
G00 Z15.00


