(G-CODE GENERATED BY FLATCAM v8.994 - www.flatcam.org - Version Date: 2020/11/7)

(Name: led_holder-PTH.drl_cnc)
(Type: G-code from Geometry)
(Units: MM)

(Created on Tuesday, 12 December 2023 at 12:00)

(This preprocessor is the default preprocessor used by FlatCAM.)
(It is made to work with MACH3 compatible motion controllers.)


(TOOLS DIAMETER: )
(Tool: 1 -> Dia: 1.0)

(FEEDRATE Z: )
(Tool: 1 -> Feedrate: 300.0)

(FEEDRATE RAPIDS: )
(Tool: 1 -> Feedrate Rapids: 1500)

(Z_CUT: )
(Tool: 1 -> Z_Cut: -1.8)

(Tools Offset: )
(Tool: 1 -> Offset Z: 0.0)

(Z_MOVE: )
(Tool: 1 -> Z_Move: 2)

(Z Toolchange: 15 mm)
(X,Y Toolchange: 0.0000, 0.0000 mm)
(Z Start: None mm)
(Z End: 0.5 mm)
(X,Y End: None mm)
(Steps per circle: 64)
(Preprocessor Excellon: default)

(X range:   38.4500 ...   39.4500  mm)
(Y range:   15.4500 ...   28.4500  mm)

(Spindle Speed: 0 RPM)
G21
G90
G94

G01 F300.00

M5
G00 Z15.0000
T3M6
(MSG, Change to Tool Dia = 1.0000 ||| Total drills for tool T1 = 4)
M0
G00 Z15.0000

G01 F300.00
M03
G00 X38.9500 Y27.9500
G01 Z-1.8000
G01 Z0
G00 Z2.0000
G00 X38.9500 Y25.4500
G01 Z-1.8000
G01 Z0
G00 Z2.0000
G00 X38.9500 Y15.9500
G01 Z-1.8000
G01 Z0
G00 Z2.0000
G00 X38.9500 Y18.4500
G01 Z-1.8000
G01 Z0
G00 Z2.0000
M05
G00 Z0.50


